; generated by Slic3r 1.2.9 on 2016-12-07 at 12:08:45

; external perimeters extrusion width = 0.40mm
; perimeters extrusion width = 0.67mm
; infill extrusion width = 0.67mm
; solid infill extrusion width = 0.67mm
; top infill extrusion width = 0.67mm

M127
M104 S230 T0 ; set temperature
(**** Start.gcode for Replicator 2 ****)
M103 ;disable RPM
M73 P0 ;enable build progress
G21 ;set units to mm
G90 ;set positioning to absolute
(**** begin homing ****)
G162 X Y F2500 ;home XY axes maximum
G161 Z F1100 ;home Z axis minimum
G92 Z-5 ;set Z to -5
G1 Z0.0 ;move Z to "0"
G161 Z F100 ;home Z axis minimum
M132 X Y Z A B ;Recall stored home offsets for XYZAB axis
(**** end homing ****)
G1 X-141 Y-74 Z75 F3300.0 ;move to waiting position
G130 X20 Y20 Z20 A20 B20 ;Lower stepper Vrefs while heating
M6 T0 ;wait for toolhead, and HBP to reach temperature
M70 P5 (We Be Making Things!)
G130 X127 Y127 Z40 A127 B127 ;Set Stepper motor Vref to defaults
M108 R3.0 T0
G0 X-141 Y-74 ;Position Nozzle
G0 Z1 ;Move above plate
G1 Z0.3 ;Position Height
M108 R5.0 ;Set Extruder Speed
M101 ;Start Extruder
G4 P3000 ;Create Anchor
G1 X-137 Y-70 Z0.1 F1000.0 ;Slow wipe
G0 Z0.3 ;and lift
(**** end of Start.gcode ****)
M73 P0
G1 Z0.300 F9000.000
(**** New Layer ****)
G1 E-4.00000 F1800.00000
M103 ; extruder off
G1 X7.127 Y-27.114 F9000.000
M101 ; extruder on
G1 E0.00000 F1800.00000
G1 X54.159 Y-14.752 E3.24876 F4320.000
G1 X56.318 Y-13.774 E3.40710
G1 X58.033 Y-12.137 E3.56543
G1 X58.808 Y-10.821 E3.66747
G1 X59.329 Y-9.580 E3.75741
G1 X59.712 Y-8.542 E3.83131
G1 X59.963 Y-7.774 E3.88529
G1 X60.268 Y-6.711 E3.95918
G1 X60.529 Y-5.636 E4.03307
G1 X60.744 Y-4.551 E4.10697
G1 X60.913 Y-3.458 E4.18086
G1 X61.035 Y-2.358 E4.25476
G1 X61.111 Y-1.255 E4.32865
G1 X61.141 Y-0.149 E4.40255
G1 X61.135 Y0.439 E4.44186
G1 X61.111 Y1.255 E4.49636
G1 X61.035 Y2.358 E4.57025
G1 X60.913 Y3.458 E4.64415
G1 X60.794 Y4.257 E4.69813
G1 X60.591 Y5.344 E4.77202
G1 X60.343 Y6.422 E4.84592
G1 X60.050 Y7.489 E4.91981
G1 X59.712 Y8.542 E4.99371
G1 X59.329 Y9.580 E5.06760
G1 X58.820 Y10.793 E5.15552
G1 X57.505 Y12.765 E5.31385
G1 X55.613 Y14.192 E5.47218
G1 X54.160 Y14.752 E5.57624
G1 X-18.082 Y33.740 E10.56627
G1 X-19.381 Y34.059 E10.65561
G1 X-21.090 Y34.402 E10.77213
G1 X-22.708 Y34.644 E10.88136
G1 X-24.110 Y34.794 E10.97560
G1 X-25.412 Y34.880 E11.06274
G1 X-27.153 Y34.921 E11.17910
G1 X-28.790 Y34.878 E11.28846
G1 X-30.197 Y34.782 E11.38267
G1 X-31.494 Y34.641 E11.46987
G1 X-33.215 Y34.379 E11.58617
G1 X-34.708 Y34.079 E11.68790
G1 X-36.187 Y33.715 E11.78968
G1 X-37.649 Y33.286 E11.89144
G1 X-39.091 Y32.793 E11.99327
G1 X-40.615 Y32.193 E12.10267
G1 X-41.902 Y31.623 E12.19672
G1 X-43.076 Y31.045 E12.28414
G1 X-44.415 Y30.318 E12.38592
G1 X-45.903 Y29.419 E12.50206
G1 X-46.992 Y28.692 E12.58949
G1 X-48.395 Y27.667 E12.70555
G1 X-49.581 Y26.712 E12.80730
G1 X-50.725 Y25.705 E12.90909
G1 X-51.822 Y24.651 E13.01079
G1 X-52.874 Y23.549 E13.11255
G1 X-53.876 Y22.402 E13.21432
G1 X-54.828 Y21.212 E13.31610
G1 X-55.727 Y19.981 E13.41791
G1 X-56.571 Y18.714 E13.51963
G1 X-57.359 Y17.410 E13.62144
G1 X-58.090 Y16.073 E13.72318
G1 X-58.761 Y14.706 E13.82495
G1 X-59.372 Y13.311 E13.92668
G1 X-59.922 Y11.890 E14.02844
G1 X-60.409 Y10.447 E14.13025
G1 X-60.862 Y8.868 E14.23997
G1 X-61.193 Y7.503 E14.33382
G1 X-61.507 Y5.891 E14.44352
G1 X-61.731 Y4.382 E14.54541
G1 X-61.876 Y3.043 E14.63537
G1 X-61.965 Y1.714 E14.72436
G1 X-62.009 Y0.029 E14.83699
G1 X-61.977 Y-1.483 E14.93803
G1 X-61.875 Y-3.049 E15.04288
G1 X-61.731 Y-4.384 E15.13254
G1 X-61.488 Y-6.009 E15.24229
G1 X-61.193 Y-7.503 E15.34408
G1 X-60.833 Y-8.983 E15.44581
G1 X-60.409 Y-10.446 E15.54758
G1 X-59.922 Y-11.890 E15.64938
G1 X-59.372 Y-13.310 E15.75112
G1 X-58.761 Y-14.706 E15.85289
G1 X-58.090 Y-16.073 E15.95465
G1 X-57.359 Y-17.410 E16.05643
G1 X-56.571 Y-18.714 E16.15820
G1 X-55.727 Y-19.982 E16.25997
G1 X-54.828 Y-21.212 E16.36173
G1 X-53.877 Y-22.401 E16.46348
G1 X-52.874 Y-23.548 E16.56527
G1 X-51.823 Y-24.650 E16.66701
G1 X-50.540 Y-25.872 E16.78532
G1 X-49.581 Y-26.712 E16.87054
G1 X-48.485 Y-27.596 E16.96463
G1 X-47.261 Y-28.503 E17.06641
G1 X-45.902 Y-29.419 E17.17583
G1 X-44.700 Y-30.153 E17.26996
G1 X-43.268 Y-30.946 E17.37931
G1 X-41.903 Y-31.623 E17.48109
G1 X-40.509 Y-32.239 E17.58289
G1 X-39.197 Y-32.753 E17.67706
G1 X-37.649 Y-33.286 E17.78639
G1 X-36.187 Y-33.715 E17.88816
G1 X-34.708 Y-34.079 E17.98994
G1 X-33.215 Y-34.379 E18.09169
G1 X-31.710 Y-34.614 E18.19345
G1 X-30.196 Y-34.782 E18.29521
G1 X-28.676 Y-34.885 E18.39695
G1 X-27.000 Y-34.921 E18.50901
M101 ; extruder on
G1 X-25.379 Y-34.878 E18.61729 F4320.000
G1 X-24.110 Y-34.794 E18.70228
G1 X-22.706 Y-34.644 E18.79660
G1 X-21.090 Y-34.402 E18.90576
G1 X-19.445 Y-34.074 E19.01783
G1 X-18.082 Y-33.740 E19.11158
G1 X7.069 Y-27.129 E20.84884
G1 X6.991 Y-26.596 F9000.000
M101 ; extruder on
G1 X54.023 Y-14.234 E24.09760 F4320.000
G1 X56.092 Y-13.280 E24.24978
G1 X57.707 Y-11.674 E24.40195
G1 X58.319 Y-10.601 E24.48448
G1 X58.726 Y-9.648 E24.55368
G1 X59.111 Y-8.635 E24.62607
G1 X59.534 Y-7.344 E24.71686
G1 X59.822 Y-6.299 E24.78924
G1 X60.065 Y-5.243 E24.86163
G1 X60.264 Y-4.178 E24.93402
G1 X60.418 Y-3.105 E25.00640
G1 X60.526 Y-2.027 E25.07878
G1 X60.588 Y-0.946 E25.15117
G1 X60.606 Y-0.138 E25.20515
G1 X60.588 Y0.946 E25.27754
G1 X60.526 Y2.027 E25.34992
G1 X60.418 Y3.105 E25.42230
G1 X60.218 Y4.450 E25.51310
G1 X60.008 Y5.513 E25.58548
G1 X59.753 Y6.566 E25.65787
G1 X59.454 Y7.607 E25.73026
G1 X59.111 Y8.635 E25.80264
G1 X58.726 Y9.648 E25.87503
G1 X58.331 Y10.575 E25.94236
G1 X57.055 Y12.462 E26.09453
G1 X55.208 Y13.796 E26.24670
G1 X54.023 Y14.234 E26.33110
G1 X-18.218 Y33.222 E31.32113
G1 X-19.508 Y33.539 E31.40985
G1 X-21.178 Y33.874 E31.52369
G1 X-22.766 Y34.112 E31.63092
G1 X-24.152 Y34.260 E31.72405
G1 X-25.447 Y34.345 E31.81074
G1 X-27.148 Y34.385 E31.92443
G1 X-28.754 Y34.344 E32.03178
G1 X-30.145 Y34.249 E32.12488
G1 X-31.436 Y34.108 E32.21163
G1 X-33.117 Y33.853 E32.32526
G1 X-34.588 Y33.557 E32.42544
G1 X-36.044 Y33.198 E32.52565
G1 X-37.483 Y32.776 E32.62586
G1 X-38.904 Y32.291 E32.72612
G1 X-40.399 Y31.703 E32.83350
G1 X-41.672 Y31.139 E32.92646
G1 X-42.839 Y30.564 E33.01340
G1 X-44.157 Y29.848 E33.11362
G1 X-45.611 Y28.969 E33.22711
G1 X-46.694 Y28.247 E33.31407
G1 X-48.065 Y27.245 E33.42748
G1 X-49.233 Y26.305 E33.52768
G1 X-50.359 Y25.314 E33.62791
G1 X-51.440 Y24.275 E33.72805
G1 X-52.476 Y23.190 E33.82825
G1 X-53.463 Y22.061 E33.92846
G1 X-54.400 Y20.889 E34.02868
G1 X-55.286 Y19.678 E34.12893
G1 X-56.117 Y18.430 E34.22909
G1 X-56.893 Y17.146 E34.32934
G1 X-57.612 Y15.830 E34.42952
G1 X-58.274 Y14.484 E34.52973
G1 X-58.876 Y13.110 E34.62990
G1 X-59.417 Y11.711 E34.73011
G1 X-59.897 Y10.290 E34.83035
G1 X-60.342 Y8.741 E34.93801
G1 X-60.669 Y7.391 E35.03080
G1 X-60.977 Y5.809 E35.13844
G1 X-61.199 Y4.324 E35.23878
G1 X-61.342 Y3.001 E35.32767
G1 X-61.430 Y1.679 E35.41618
G1 X-61.473 Y0.027 E35.52657
G1 X-61.442 Y-1.462 E35.62610
G1 X-61.342 Y-3.002 E35.72919
G1 X-61.199 Y-4.326 E35.81810
G1 X-60.959 Y-5.920 E35.92580
G1 X-60.669 Y-7.392 E36.02602
G1 X-60.315 Y-8.849 E36.12620
G1 X-59.897 Y-10.289 E36.22641
G1 X-59.417 Y-11.711 E36.32664
G1 X-58.876 Y-13.109 E36.42683
G1 X-58.274 Y-14.483 E36.52704
G1 X-57.613 Y-15.830 E36.62723
G1 X-56.893 Y-17.146 E36.72746
G1 X-56.117 Y-18.430 E36.82767
G1 X-55.285 Y-19.678 E36.92788
G1 X-54.401 Y-20.889 E37.02807
G1 X-53.464 Y-22.060 E37.12827
G1 X-52.476 Y-23.190 E37.22849
G1 X-51.441 Y-24.275 E37.32868
G1 X-50.187 Y-25.469 E37.44435
G1 X-49.233 Y-26.305 E37.52909
G1 X-48.149 Y-27.179 E37.62209
G1 X-46.944 Y-28.071 E37.72231
G1 X-45.611 Y-28.970 E37.82970
G1 X-44.422 Y-29.695 E37.92273
G1 X-43.016 Y-30.473 E38.03007
G1 X-41.672 Y-31.139 E38.13028
G1 X-40.300 Y-31.746 E38.23052
G1 X-39.002 Y-32.254 E38.32360
G1 X-37.484 Y-32.776 E38.43090
G1 X-36.044 Y-33.198 E38.53112
G1 X-34.588 Y-33.557 E38.63133
G1 X-33.117 Y-33.853 E38.73152
G1 X-31.635 Y-34.083 E38.83173
G1 X-30.144 Y-34.249 E38.93193
G1 X-28.648 Y-34.350 E39.03211
G1 X-27.006 Y-34.385 E39.14182
M101 ; extruder on
G1 X-25.414 Y-34.343 E39.24822 F4320.000
G1 X-24.151 Y-34.260 E39.33276
G1 X-22.764 Y-34.111 E39.42596
G1 X-21.178 Y-33.874 E39.53313
G1 X-19.567 Y-33.553 E39.64285
G1 X-18.218 Y-33.222 E39.73565
G1 X6.933 Y-26.611 E41.47291
G1 E37.47291 F1800.00000
M103 ; extruder off
G1 X-36.877 Y-25.746 F9000.000
M101 ; extruder on
G1 E41.47291 F1800.00000
G1 X-36.510 Y-25.888 E41.49923 F1080.000
G1 X-35.341 Y-26.284 E41.58166
G1 X-34.218 Y-26.611 E41.65984
G1 X-33.072 Y-26.892 E41.73863
G1 X-31.894 Y-27.127 E41.81893
G1 X-30.683 Y-27.314 E41.90075
G1 X-29.489 Y-27.445 E41.98104
G1 X-28.289 Y-27.524 E42.06133
G1 X-27.056 Y-27.550 E42.14371
G1 X-25.886 Y-27.524 E42.22194
M101 ; extruder on
G1 X-24.710 Y-27.447 E42.30068 F1080.000
G1 X-23.515 Y-27.317 E42.38097
G1 X-22.303 Y-27.131 E42.46285
G1 X-21.148 Y-26.902 E42.54155
G1 X-19.957 Y-26.611 E42.62344
G1 X-18.803 Y-26.275 E42.70374
G1 X-17.665 Y-25.888 E42.78404
G1 X-16.545 Y-25.453 E42.86434
G1 X-15.444 Y-24.969 E42.94463
G1 X-14.340 Y-24.423 E43.02692
G1 X-13.312 Y-23.859 E43.10523
G1 X-12.306 Y-23.248 E43.18390
G1 X-11.306 Y-22.581 E43.26419
G1 X-10.316 Y-21.857 E43.34614
G1 X-9.379 Y-21.104 E43.42643
G1 X-8.475 Y-20.312 E43.50673
G1 X-7.607 Y-19.481 E43.58703
G1 X-6.775 Y-18.612 E43.66733
G1 X-5.983 Y-17.709 E43.74763
G1 X-5.231 Y-16.771 E43.82792
G1 X-4.504 Y-15.778 E43.91014
G1 X-3.852 Y-14.803 E43.98853
G1 X-3.242 Y-13.797 E44.06711
G1 X-2.662 Y-12.744 E44.14741
G1 X-2.119 Y-11.643 E44.22944
G1 X-1.635 Y-10.543 E44.30973
G1 X-1.199 Y-9.423 E44.39003
G1 X-0.813 Y-8.284 E44.47033
G1 X-0.476 Y-7.131 E44.55062
G1 X-0.185 Y-5.936 E44.63277
G1 X0.044 Y-4.784 E44.71123
G1 X0.223 Y-3.622 E44.78974
G1 X0.355 Y-2.428 E44.87004
G1 X0.436 Y-1.202 E44.95213
G1 X0.463 Y-0.000 E45.03243
G1 X0.436 Y1.202 E45.11273
G1 X0.358 Y2.401 E45.19303
G1 X0.227 Y3.596 E45.27332
G1 X0.039 Y4.810 E45.35540
G1 X-0.191 Y5.963 E45.43392
G1 X-0.476 Y7.130 E45.51422
G1 X-0.813 Y8.284 E45.59452
G1 X-1.199 Y9.423 E45.67482
G1 X-1.635 Y10.543 E45.75512
G1 X-2.119 Y11.643 E45.83542
G1 X-2.650 Y12.721 E45.91572
G1 X-3.228 Y13.775 E45.99602
G1 X-3.866 Y14.824 E46.07804
G1 X-4.520 Y15.802 E46.15662
G1 X-5.231 Y16.771 E46.23692
G1 X-5.983 Y17.709 E46.31722
G1 X-6.775 Y18.612 E46.39752
G1 X-7.607 Y19.481 E46.47782
G1 X-8.475 Y20.312 E46.55812
G1 X-9.379 Y21.104 E46.63842
G1 X-10.316 Y21.857 E46.71872
G1 X-11.306 Y22.582 E46.80067
G1 X-12.285 Y23.235 E46.87932
G1 X-13.312 Y23.859 E46.95962
G1 X-14.366 Y24.437 E47.03992
G1 X-15.444 Y24.969 E47.12022
G1 X-16.545 Y25.453 E47.20052
G1 X-17.665 Y25.888 E47.28082
G1 X-18.803 Y26.275 E47.36112
G1 X-19.957 Y26.611 E47.44141
G1 X-21.148 Y26.902 E47.52330
G1 X-22.303 Y27.131 E47.60202
G1 X-23.491 Y27.314 E47.68232
G1 X-24.686 Y27.445 E47.76262
G1 X-25.886 Y27.524 E47.84292
G1 X-27.087 Y27.550 E47.92322
G1 X-28.289 Y27.524 E48.00352
G1 X-29.489 Y27.445 E48.08382
G1 X-30.683 Y27.314 E48.16411
G1 X-31.894 Y27.127 E48.24594
G1 X-33.050 Y26.897 E48.32472
G1 X-34.218 Y26.611 E48.40502
G1 X-35.372 Y26.275 E48.48532
G1 X-36.510 Y25.888 E48.56562
G1 X-37.630 Y25.453 E48.64592
G1 X-38.731 Y24.969 E48.72622
G1 X-39.809 Y24.437 E48.80652
G1 X-40.862 Y23.859 E48.88681
G1 X-41.908 Y23.224 E48.96857
G1 X-42.889 Y22.568 E49.04741
G1 X-43.859 Y21.857 E49.12772
G1 X-44.796 Y21.104 E49.20802
G1 X-45.700 Y20.312 E49.28832
G1 X-46.568 Y19.481 E49.36862
G1 X-47.399 Y18.612 E49.44892
G1 X-48.192 Y17.709 E49.52922
G1 X-48.944 Y16.771 E49.60951
G1 X-49.667 Y15.785 E49.69120
G1 X-50.323 Y14.803 E49.77011
G1 X-50.946 Y13.775 E49.85042
G1 X-51.525 Y12.721 E49.93072
G1 X-52.056 Y11.643 E50.01102
G1 X-52.540 Y10.543 E50.09132
G1 X-52.976 Y9.423 E50.17162
G1 X-53.362 Y8.284 E50.25192
G1 X-53.699 Y7.131 E50.33221
G1 X-53.988 Y5.944 E50.41383
G1 X-54.222 Y4.765 E50.49413
G1 X-54.402 Y3.596 E50.57311
G1 X-54.530 Y2.429 E50.65155
G1 X-54.611 Y1.202 E50.73372
G1 X-54.637 Y-0.002 E50.81412
G1 X-54.611 Y-1.202 E50.89431
G1 X-54.530 Y-2.429 E50.97647
G1 X-54.402 Y-3.596 E51.05491
G1 X-54.222 Y-4.765 E51.13390
G1 X-53.988 Y-5.944 E51.21419
G1 X-53.699 Y-7.131 E51.29582
G1 X-53.362 Y-8.284 E51.37611
G1 X-52.976 Y-9.423 E51.45641
G1 X-52.540 Y-10.543 E51.53671
G1 X-52.056 Y-11.643 E51.61700
G1 X-51.509 Y-12.751 E51.69956
G1 X-50.946 Y-13.775 E51.77761
G1 X-50.334 Y-14.785 E51.85653
G1 X-49.667 Y-15.785 E51.93682
G1 X-48.944 Y-16.771 E52.01851
G1 X-48.192 Y-17.709 E52.09881
G1 X-47.399 Y-18.612 E52.17911
G1 X-46.568 Y-19.481 E52.25941
G1 X-45.700 Y-20.312 E52.33971
G1 X-44.796 Y-21.104 E52.42001
G1 X-43.859 Y-21.857 E52.50030
G1 X-42.863 Y-22.586 E52.58278
G1 X-41.890 Y-23.235 E52.66091
G1 X-40.881 Y-23.848 E52.73975
G1 X-39.828 Y-24.427 E52.82004
G1 X-38.730 Y-24.969 E52.90181
G1 X-37.630 Y-25.453 E52.98210
G1 X-36.933 Y-25.724 E53.03206
G1 X-36.570 Y-25.499 F9000.000
G1 X-48.525 Y-0.859 F9000.000
M101 ; extruder on
G1 X-48.600 Y-1.097 E53.04877 F2160.000
G1 X-48.835 Y-1.549 E53.08277
G1 X-49.215 Y-2.021 E53.12326
G1 X-49.611 Y-2.354 E53.15788
G1 X-50.151 Y-2.650 E53.19899
G1 X-50.745 Y-2.824 E53.24035
G1 X-51.295 Y-2.867 E53.27721
G1 X-51.863 Y-2.801 E53.31540
G1 X-52.349 Y-2.648 E53.34946
G1 X-52.828 Y-2.393 E53.38570
G1 X-53.272 Y-2.032 E53.42389
G1 X-53.603 Y-1.637 E53.45832
G1 X-53.819 Y-1.244 E53.48829
G1 X-54.067 Y-1.316 E53.50553
G1 X-53.996 Y-2.382 E53.57688
G1 X-53.871 Y-3.526 E53.65378
G1 X-53.694 Y-4.672 E53.73122
G1 X-53.465 Y-5.828 E53.80996
G1 X-53.181 Y-6.992 E53.89000
G1 X-52.851 Y-8.123 E53.96873
G1 X-52.472 Y-9.239 E54.04747
G1 X-52.045 Y-10.338 E54.12621
G1 X-51.571 Y-11.416 E54.20492
G1 X-51.033 Y-12.503 E54.28591
G1 X-50.482 Y-13.507 E54.36242
G1 X-49.882 Y-14.497 E54.43980
G1 X-49.228 Y-15.478 E54.51854
G1 X-48.519 Y-16.445 E54.59865
G1 X-47.781 Y-17.364 E54.67737
G1 X-47.004 Y-18.251 E54.75611
G1 X-46.189 Y-19.102 E54.83485
G1 X-45.338 Y-19.917 E54.91359
G1 X-44.452 Y-20.694 E54.99233
G1 X-43.533 Y-21.432 E55.07104
G1 X-42.556 Y-22.147 E55.15195
G1 X-41.602 Y-22.784 E55.22854
G1 X-40.613 Y-23.384 E55.30584
G1 X-39.580 Y-23.952 E55.38458
G1 X-38.504 Y-24.483 E55.46477
G1 X-37.425 Y-24.958 E55.54349
G1 X-36.327 Y-25.385 E55.62221
G1 X-35.181 Y-25.773 E55.70307
G1 X-34.079 Y-26.094 E55.77971
G1 X-32.956 Y-26.369 E55.85695
G1 X-31.800 Y-26.600 E55.93569
G1 X-30.613 Y-26.783 E56.01594
G1 X-29.442 Y-26.911 E56.09466
G1 X-28.266 Y-26.988 E56.17337
G1 X-27.057 Y-27.014 E56.25418
G1 X-25.909 Y-26.988 E56.33087
G1 X-24.756 Y-26.913 E56.40807
G1 X-23.584 Y-26.786 E56.48681
G1 X-22.396 Y-26.604 E56.56711
G1 X-21.263 Y-26.379 E56.64426
G1 X-20.095 Y-26.094 E56.72458
G1 X-18.964 Y-25.764 E56.80330
G1 X-17.848 Y-25.385 E56.88204
G1 X-16.750 Y-24.958 E56.96078
G1 X-15.671 Y-24.483 E57.03949
G1 X-14.588 Y-23.948 E57.12022
G1 X-13.580 Y-23.395 E57.19699
G1 X-12.593 Y-22.796 E57.27411
G1 X-11.613 Y-22.142 E57.35285
G1 X-10.642 Y-21.432 E57.43322
G1 X-9.723 Y-20.694 E57.51194
G1 X-8.837 Y-19.917 E57.59068
G1 X-7.986 Y-19.102 E57.66942
G1 X-7.170 Y-18.251 E57.74816
G1 X-6.393 Y-17.364 E57.82690
G1 X-5.656 Y-16.445 E57.90561
G1 X-4.943 Y-15.471 E57.98626
G1 X-4.304 Y-14.515 E58.06311
G1 X-3.705 Y-13.529 E58.14015
G1 X-3.137 Y-12.496 E58.21889
G1 X-2.604 Y-11.416 E58.29934
G1 X-2.130 Y-10.338 E58.37806
G1 X-1.702 Y-9.239 E58.45680
G1 X-1.324 Y-8.123 E58.53554
G1 X-0.994 Y-6.992 E58.61426
G1 X-0.708 Y-5.820 E58.69484
G1 X-0.484 Y-4.691 E58.77175
G1 X-0.308 Y-3.552 E58.84873
G1 X-0.179 Y-2.381 E58.92747
G1 X-0.099 Y-1.178 E59.00799
G1 X-0.073 Y-0.000 E59.08671
G1 X-0.099 Y1.178 E59.16544
G1 X-0.176 Y2.354 E59.24418
G1 X-0.304 Y3.526 E59.32290
G1 X-0.489 Y4.717 E59.40342
G1 X-0.714 Y5.847 E59.48039
G1 X-0.994 Y6.992 E59.55913
G1 X-1.324 Y8.123 E59.63787
G1 X-1.702 Y9.239 E59.71661
G1 X-2.130 Y10.338 E59.79535
G1 X-2.604 Y11.417 E59.87409
G1 X-3.126 Y12.474 E59.95283
G1 X-3.692 Y13.507 E60.03155
G1 X-4.318 Y14.536 E60.11200
G1 X-4.959 Y15.495 E60.18903
G1 X-5.656 Y16.445 E60.26778
G1 X-6.393 Y17.364 E60.34652
G1 X-7.170 Y18.251 E60.42526
G1 X-7.986 Y19.102 E60.50399
G1 X-8.837 Y19.917 E60.58273
