; generated by Slic3r 1.2.9 on 2016-12-03 at 18:25:03

; external perimeters extrusion width = 0.40mm
; perimeters extrusion width = 0.67mm
; infill extrusion width = 0.67mm
; solid infill extrusion width = 0.67mm
; top infill extrusion width = 0.67mm

M127
M104 S230 T0 ; set temperature
(**** Start.gcode for Replicator 2 ****)
M103 ;disable RPM
M73 P0 ;enable build progress
G21 ;set units to mm
G90 ;set positioning to absolute
(**** begin homing ****)
G162 X Y F2500 ;home XY axes maximum
G161 Z F1100 ;home Z axis minimum
G92 Z-5 ;set Z to -5
G1 Z0.0 ;move Z to "0"
G161 Z F100 ;home Z axis minimum
M132 X Y Z A B ;Recall stored home offsets for XYZAB axis
(**** end homing ****)
G1 X-141 Y-74 Z75 F3300.0 ;move to waiting position
G130 X20 Y20 Z20 A20 B20 ;Lower stepper Vrefs while heating
M6 T0 ;wait for toolhead, and HBP to reach temperature
M70 P5 (We Be Making Things!)
G130 X127 Y127 Z40 A127 B127 ;Set Stepper motor Vref to defaults
M108 R3.0 T0
G0 X-141 Y-74 ;Position Nozzle
G0 Z1 ;Move above plate
G1 Z0.3 ;Position Height
M108 R5.0 ;Set Extruder Speed
M101 ;Start Extruder
G4 P3000 ;Create Anchor
G1 X-137 Y-70 Z0.1 F1000.0 ;Slow wipe
G0 Z0.3 ;and lift
(**** end of Start.gcode ****)
M73 P0
G1 Z0.300 F9000.000
(**** New Layer ****)
G1 E-4.00000 F1800.00000
M103 ; extruder off
G1 X-21.657 Y32.528 F9000.000
M101 ; extruder on
G1 E0.00000 F1800.00000
G1 X-61.564 Y5.957 E3.20282 F4320.000
G1 X-63.288 Y4.332 E3.36116
G1 X-64.379 Y2.228 E3.51949
G1 X-64.452 Y1.988 E3.53624
G1 X-64.755 Y0.901 E3.61163
G1 X-65.011 Y-0.194 E3.68670
G1 X-65.219 Y-1.298 E3.76177
G1 X-65.380 Y-2.410 E3.83686
G1 X-65.494 Y-3.528 E3.91194
G1 X-65.561 Y-4.720 E3.99164
G1 X-65.577 Y-5.774 E4.06208
G1 X-65.559 Y-6.595 E4.11698
G1 X-65.494 Y-7.717 E4.19206
G1 X-65.380 Y-8.835 E4.26713
G1 X-65.219 Y-9.948 E4.34221
G1 X-64.947 Y-11.347 E4.43747
G1 X-64.680 Y-12.434 E4.51220
G1 X-64.400 Y-13.409 E4.57997
G1 X-63.957 Y-14.505 E4.65900
G1 X-51.756 Y-38.659 E6.46674
G1 X-50.348 Y-40.565 E6.62507
G1 X-48.389 Y-41.899 E6.78340
G1 X-45.444 Y-42.542 E6.98476
G1 X-15.596 Y-42.542 E8.97877
M101 ; extruder on
G1 X-14.391 Y-42.438 E9.05958 F4320.000
G1 X60.399 Y-29.501 E14.13016
G1 X62.634 Y-28.712 E14.28849
G1 X64.482 Y-27.228 E14.44682
G1 X65.736 Y-25.217 E14.60515
G1 X66.265 Y-22.599 E14.78358
G1 X66.594 Y12.879 E17.15377
G1 X66.594 Y35.804 E18.68532
G1 X66.197 Y38.141 E18.84365
G1 X65.050 Y40.215 E19.00198
G1 X63.282 Y41.793 E19.16031
G1 X61.092 Y42.699 E19.31864
G1 X59.523 Y42.875 E19.42414
G1 X-3.977 Y42.875 E23.66628
G1 X-6.314 Y42.478 E23.82461
G1 X-7.896 Y41.690 E23.94272
G1 X-21.608 Y32.561 E25.04317
G1 X-21.361 Y32.082 F9000.000
M101 ; extruder on
G1 X-61.267 Y5.511 E28.24600 F4320.000
G1 X-62.914 Y3.938 E28.39817
G1 X-63.869 Y2.064 E28.53867
G1 X-64.234 Y0.776 E28.62813
G1 X-64.485 Y-0.296 E28.70167
G1 X-64.700 Y-1.446 E28.77984
G1 X-64.848 Y-2.467 E28.84877
G1 X-64.935 Y-3.284 E28.90366
G1 X-65.024 Y-4.662 E28.99586
G1 X-65.040 Y-5.832 E29.07403
G1 X-65.012 Y-6.863 E29.14296
G1 X-64.959 Y-7.683 E29.19785
G1 X-64.812 Y-9.055 E29.29004
G1 X-64.642 Y-10.143 E29.36360
G1 X-64.485 Y-10.950 E29.41849
G1 X-64.234 Y-12.022 E29.49204
G1 X-63.888 Y-13.250 E29.57731
G1 X-63.479 Y-14.264 E29.65036
G1 X-51.278 Y-38.417 E31.45810
G1 X-49.912 Y-40.240 E31.61027
G1 X-48.004 Y-41.484 E31.76244
G1 X-45.444 Y-42.006 E31.93696
G1 X-28.706 Y-42.006 E33.05518
M101 ; extruder on
G1 X-15.596 Y-42.006 E33.93097 F4320.000
G1 X-14.483 Y-41.910 E34.00566
G1 X60.308 Y-28.973 E39.07624
G1 X62.450 Y-28.200 E39.22841
G1 X64.197 Y-26.738 E39.38058
G1 X65.336 Y-24.766 E39.53276
G1 X65.729 Y-22.594 E39.68019
G1 X66.058 Y12.884 E42.05038
G1 X66.058 Y35.804 E43.58160
G1 X65.661 Y38.047 E43.73377
G1 X64.519 Y40.018 E43.88594
G1 X62.769 Y41.476 E44.03812
G1 X59.523 Y42.340 E44.26255
G1 X-3.977 Y42.340 E48.50469
G1 X-6.220 Y41.943 E48.65686
G1 X-7.599 Y41.244 E48.76014
G1 X-21.311 Y32.115 E49.86060
G1 E45.86060 F1800.00000
M103 ; extruder off
G1 X-29.160 Y16.569 F9000.000
M101 ; extruder on
G1 E49.86060 F1800.00000
G1 X-29.445 Y16.229 E49.89025 F1620.000
G1 X-29.702 Y15.863 E49.92012
G1 X-29.924 Y15.478 E49.94978
G1 X-30.196 Y14.858 E49.99500
G1 X-30.330 Y14.435 E50.02466
G1 X-30.426 Y14.002 E50.05432
G1 X-30.499 Y13.343 E50.09862
G1 X-30.500 Y12.888 E50.12900
G1 X-30.428 Y12.229 E50.17328
G1 X-30.330 Y11.782 E50.20387
G1 X-30.195 Y11.355 E50.23372
G1 X-30.024 Y10.942 E50.26360
G1 X-29.818 Y10.546 E50.29347
G1 X-29.578 Y10.168 E50.32334
G1 X-29.307 Y9.816 E50.35299
G1 X-28.839 Y9.327 E50.39822
G1 X-28.499 Y9.042 E50.42787
G1 X-28.136 Y8.787 E50.45753
G1 X-27.542 Y8.462 E50.50276
G1 X-27.132 Y8.292 E50.53241
G1 X-26.705 Y8.157 E50.56228
G1 X-26.272 Y8.061 E50.59194
G1 X-25.613 Y7.989 E50.63624
G1 X-25.158 Y7.988 E50.66662
G1 X-24.499 Y8.059 E50.71090
M101 ; extruder on
G1 X-24.052 Y8.158 E50.74149 F1620.000
G1 X-23.626 Y8.292 E50.77135
G1 X-23.213 Y8.463 E50.80122
G1 X-22.816 Y8.669 E50.83109
G1 X-22.439 Y8.910 E50.86096
G1 X-22.087 Y9.180 E50.89062
G1 X-21.598 Y9.648 E50.93585
G1 X-21.312 Y9.988 E50.96550
G1 X-21.056 Y10.354 E50.99537
G1 X-20.834 Y10.739 E51.02502
G1 X-20.561 Y11.359 E51.07025
G1 X-20.428 Y11.782 E51.09991
G1 X-20.332 Y12.215 E51.12956
G1 X-20.258 Y12.888 E51.17479
G1 X-20.258 Y13.332 E51.20444
G1 X-20.297 Y13.778 E51.23431
G1 X-20.374 Y14.215 E51.26397
G1 X-20.559 Y14.852 E51.30827
G1 X-20.733 Y15.275 E51.33886
G1 X-20.940 Y15.671 E51.36872
G1 X-21.180 Y16.048 E51.39859
G1 X-21.450 Y16.401 E51.42824
G1 X-21.918 Y16.890 E51.47347
G1 X-22.258 Y17.175 E51.50312
G1 X-22.625 Y17.431 E51.53300
G1 X-23.009 Y17.653 E51.56265
G1 X-23.629 Y17.926 E51.60788
G1 X-24.052 Y18.060 E51.63753
G1 X-24.486 Y18.156 E51.66718
G1 X-25.158 Y18.229 E51.71241
G1 X-25.602 Y18.229 E51.74206
G1 X-26.048 Y18.190 E51.77194
G1 X-26.485 Y18.113 E51.80160
G1 X-27.122 Y17.928 E51.84590
G1 X-27.545 Y17.754 E51.87649
G1 X-27.942 Y17.547 E51.90634
G1 X-28.319 Y17.307 E51.93622
G1 X-28.671 Y17.037 E51.96587
G1 X-29.117 Y16.610 E52.00709
G1 X-29.037 Y16.188 F9000.000
G1 X-28.475 Y15.941 F9000.000
M101 ; extruder on
G1 X-28.598 Y15.806 E52.01931 F1620.000
G1 X-28.910 Y15.383 E52.05441
G1 X-29.104 Y15.048 E52.08026
G1 X-29.259 Y14.716 E52.10477
G1 X-29.386 Y14.369 E52.12946
G1 X-29.511 Y13.858 E52.16456
G1 X-29.563 Y13.475 E52.19041
G1 X-29.579 Y13.105 E52.21514
G1 X-29.544 Y12.563 E52.25140
G1 X-29.480 Y12.199 E52.27610
G1 X-29.385 Y11.845 E52.30058
G1 X-29.259 Y11.501 E52.32506
G1 X-29.104 Y11.169 E52.34954
G1 X-28.920 Y10.849 E52.37424
G1 X-28.599 Y10.411 E52.41051
G1 X-28.349 Y10.138 E52.43521
G1 X-28.076 Y9.889 E52.45989
G1 X-27.653 Y9.577 E52.49499
G1 X-27.319 Y9.383 E52.52084
G1 X-26.986 Y9.228 E52.54535
G1 X-26.642 Y9.103 E52.56983
G1 X-26.288 Y9.008 E52.59431
G1 X-25.924 Y8.944 E52.61899
M101 ; extruder on
G1 X-25.400 Y8.908 E52.65409 F1620.000
G1 X-25.013 Y8.924 E52.67994
G1 X-24.649 Y8.972 E52.70445
G1 X-24.288 Y9.052 E52.72915
G1 X-23.774 Y9.227 E52.76542
G1 X-23.439 Y9.383 E52.79012
G1 X-23.119 Y9.568 E52.81482
G1 X-22.681 Y9.889 E52.85109
G1 X-22.406 Y10.141 E52.87600
G1 X-22.048 Y10.549 E52.91227
G1 X-21.836 Y10.852 E52.93697
G1 X-21.653 Y11.169 E52.96145
G1 X-21.498 Y11.501 E52.98593
G1 X-21.373 Y11.845 E53.01041
G1 X-21.277 Y12.203 E53.03511
G1 X-21.195 Y12.739 E53.07138
G1 X-21.178 Y13.108 E53.09608
G1 X-21.195 Y13.478 E53.12076
G1 X-21.274 Y13.997 E53.15586
G1 X-21.373 Y14.371 E53.18171
G1 X-21.498 Y14.716 E53.20622
G1 X-21.653 Y15.048 E53.23070
G1 X-21.838 Y15.368 E53.25540
G1 X-22.159 Y15.806 E53.29167
G1 X-22.409 Y16.079 E53.31636
G1 X-22.681 Y16.328 E53.34105
G1 X-23.104 Y16.639 E53.37615
G1 X-23.439 Y16.834 E53.40200
G1 X-23.771 Y16.989 E53.42651
G1 X-24.116 Y17.114 E53.45099
G1 X-24.473 Y17.210 E53.47569
G1 X-25.009 Y17.293 E53.51195
G1 X-25.382 Y17.309 E53.53687
G1 X-25.924 Y17.273 E53.57314
G1 X-26.288 Y17.209 E53.59784
G1 X-26.642 Y17.114 E53.62232
G1 X-26.986 Y16.989 E53.64680
G1 X-27.318 Y16.834 E53.67128
G1 X-27.638 Y16.649 E53.69598
G1 X-28.076 Y16.328 E53.73225
G1 X-28.434 Y15.985 E53.76537
G1 X-28.653 Y15.984 F9000.000
G1 X-28.806 Y16.265 F9000.000
M101 ; extruder on
G1 X-29.075 Y15.945 E53.82463 F1620.000
G1 X-29.311 Y15.614 E53.88222
G1 X-29.511 Y15.269 E53.93866
G1 X-29.761 Y14.695 E54.02738
G1 X-29.879 Y14.314 E54.08378
G1 X-29.969 Y13.926 E54.14024
G1 X-30.020 Y13.507 E54.20001
G1 X-30.039 Y13.090 E54.25919
M101 ; extruder on
G1 X-29.969 Y12.304 E54.37093 F1620.000
G1 X-29.881 Y11.901 E54.42930
G1 X-29.758 Y11.514 E54.48679
G1 X-29.603 Y11.139 E54.54438
G1 X-29.415 Y10.778 E54.60197
G1 X-29.195 Y10.436 E54.65955
G1 X-28.956 Y10.118 E54.71597
G1 X-28.521 Y9.667 E54.80470
G1 X-28.215 Y9.412 E54.86110
G1 X-27.891 Y9.181 E54.91751
G1 X-27.523 Y8.973 E54.97732
G1 X-27.155 Y8.799 E55.03504
G1 X-26.585 Y8.607 E55.12020
G1 X-26.196 Y8.520 E55.17666
G1 X-25.396 Y8.448 E55.29049
G1 X-24.983 Y8.467 E55.34905
G1 X-24.574 Y8.516 E55.40734
G1 X-24.171 Y8.605 E55.46574
G1 X-23.785 Y8.730 E55.52324
G1 X-23.409 Y8.884 E55.58082
G1 X-23.048 Y9.072 E55.63841
G1 X-22.706 Y9.292 E55.69599
G1 X-22.388 Y9.531 E55.75241
G1 X-22.072 Y9.828 E55.81381
G1 X-21.691 Y10.255 E55.89485
G1 X-21.446 Y10.603 E55.95514
G1 X-21.247 Y10.948 E56.01158
G1 X-20.996 Y11.522 E56.10031
G1 X-20.877 Y11.902 E56.15671
G1 X-20.792 Y12.291 E56.21311
G1 X-20.738 Y12.705 E56.27215
G1 X-20.718 Y13.117 E56.33062
G1 X-20.737 Y13.533 E56.38958
G1 X-20.819 Y14.081 E56.46808
G1 X-20.998 Y14.698 E56.55907
G1 X-21.155 Y15.079 E56.61744
G1 X-21.342 Y15.439 E56.67492
G1 X-21.562 Y15.781 E56.73251
G1 X-21.801 Y16.099 E56.78892
G1 X-22.236 Y16.550 E56.87765
G1 X-22.542 Y16.805 E56.93405
G1 X-22.874 Y17.041 E56.99164
G1 X-23.218 Y17.240 E57.04808
G1 X-23.604 Y17.415 E57.10802
G1 X-23.969 Y17.551 E57.16323
G1 X-24.368 Y17.658 E57.22170
G1 X-25.184 Y17.765 E57.33826
G1 X-25.582 Y17.763 E57.39465
G1 X-25.987 Y17.732 E57.45225
G1 X-26.380 Y17.662 E57.50874
G1 X-26.787 Y17.549 E57.56863
G1 X-27.154 Y17.417 E57.62384
G1 X-27.523 Y17.246 E57.68143
G1 X-27.899 Y17.029 E57.74287
G1 X-28.361 Y16.692 E57.82390
G1 X-28.764 Y16.308 E57.90276
M73 P0
G1 Z0.300 F9000.000
(**** New Layer ****)
G1 E53.90276 F1800.00000
M103 ; extruder off
G1 X-3.677 Y13.244 F9000.000
M101 ; extruder on
G1 E57.90276 F1800.00000
G1 X59.223 Y13.244 E62.10482 F1080.000
G1 X59.223 Y35.504 E63.59191
G1 X46.653 Y35.504 E64.43167
G1 X46.564 Y34.943 E64.46960
G1 X46.398 Y34.130 E64.52508
G1 X46.197 Y33.324 E64.58056
G1 X45.961 Y32.527 E64.63604
G1 X45.691 Y31.742 E64.69152
G1 X45.387 Y30.969 E64.74700
G1 X45.050 Y30.210 E64.80248
G1 X44.680 Y29.467 E64.85796
G1 X44.278 Y28.740 E64.91344
G1 X43.845 Y28.032 E64.96892
G1 X43.381 Y27.343 E65.02440
G1 X42.888 Y26.674 E65.07988
G1 X42.367 Y26.028 E65.13536
G1 X41.817 Y25.405 E65.19084
G1 X41.241 Y24.807 E65.24632
G1 X40.640 Y24.234 E65.30180
G1 X40.014 Y23.688 E65.35728
G1 X39.366 Y23.170 E65.41276
G1 X38.695 Y22.680 E65.46824
G1 X38.004 Y22.220 E65.52371
G1 X37.293 Y21.790 E65.57919
G1 X36.564 Y21.392 E65.63467
G1 X35.819 Y21.026 E65.69015
G1 X35.058 Y20.692 E65.74563
G1 X34.284 Y20.392 E65.80111
G1 X33.497 Y20.126 E65.85659
G1 X32.700 Y19.895 E65.91207
G1 X31.893 Y19.698 E65.96755
G1 X31.078 Y19.536 E66.02303
G1 X30.257 Y19.410 E66.07851
G1 X29.432 Y19.320 E66.13399
G1 X28.603 Y19.266 E66.18947
G1 X27.773 Y19.248 E66.24495
G1 X26.942 Y19.266 E66.30043
G1 X26.109 Y19.321 E66.35623
G1 X25.288 Y19.410 E66.41139
G1 X24.467 Y19.536 E66.46687
G1 X23.653 Y19.698 E66.52235
G1 X22.846 Y19.895 E66.57783
G1 X22.048 Y20.126 E66.63331
G1 X21.262 Y20.392 E66.68879
G1 X20.487 Y20.692 E66.74427
G1 X19.727 Y21.026 E66.79975
G1 X18.981 Y21.392 E66.85523
G1 X18.253 Y21.790 E66.91071
G1 X17.542 Y22.220 E66.96619
G1 X16.851 Y22.680 E67.02167
G1 X16.180 Y23.170 E67.07715
G1 X15.531 Y23.688 E67.13263
G1 X14.905 Y24.234 E67.18811
G1 X14.304 Y24.807 E67.24358
G1 X13.728 Y25.405 E67.29906
G1 X13.179 Y26.028 E67.35454
G1 X12.657 Y26.674 E67.41002
G1 X12.164 Y27.343 E67.46550
G1 X11.701 Y28.032 E67.52098
G1 X11.267 Y28.740 E67.57646
G1 X10.866 Y29.467 E67.63194
G1 X10.496 Y30.210 E67.68742
G1 X10.158 Y30.969 E67.74290
G1 X9.854 Y31.742 E67.79838
G1 X9.584 Y32.527 E67.85386
G1 X9.348 Y33.324 E67.90934
G1 X9.148 Y34.130 E67.96482
G1 X8.982 Y34.943 E68.02030
G1 X8.893 Y35.504 E68.05823
G1 X-3.677 Y35.504 E68.89799
G1 X-3.677 Y13.304 E70.38107
G1 X-3.331 Y13.444 F9000.000
G1 X-3.142 Y13.780 F9000.000
M101 ; extruder on
G1 X58.687 Y13.780 E74.51157 F2160.000
G1 X58.687 Y34.969 E75.92709
G1 X47.115 Y34.969 E76.70015
G1 X46.920 Y34.011 E76.76541
G1 X46.714 Y33.183 E76.82244
G1 X46.472 Y32.364 E76.87948
G1 X46.194 Y31.557 E76.93652
G1 X45.881 Y30.762 E76.99355
G1 X45.535 Y29.982 E77.05059
G1 X45.154 Y29.218 E77.10763
G1 X44.741 Y28.471 E77.16466
G1 X44.296 Y27.742 E77.22170
G1 X43.819 Y27.034 E77.27873
G1 X43.312 Y26.347 E77.33577
G1 X42.776 Y25.683 E77.39281
G1 X42.211 Y25.042 E77.44984
G1 X41.619 Y24.427 E77.50688
G1 X41.001 Y23.838 E77.56392
G1 X40.358 Y23.277 E77.62095
G1 X39.691 Y22.744 E77.67799
G1 X39.001 Y22.241 E77.73502
G1 X38.291 Y21.768 E77.79206
G1 X37.560 Y21.326 E77.84910
G1 X36.811 Y20.917 E77.90613
G1 X36.044 Y20.540 E77.96317
G1 X35.263 Y20.197 E78.02020
G1 X34.466 Y19.889 E78.07724
G1 X33.658 Y19.615 E78.13428
G1 X32.838 Y19.377 E78.19131
G1 X32.008 Y19.175 E78.24835
G1 X31.171 Y19.009 E78.30539
G1 X30.327 Y18.879 E78.36242
G1 X29.478 Y18.787 E78.41946
G1 X28.626 Y18.731 E78.47649
G1 X27.773 Y18.712 E78.53353
G1 X26.919 Y18.731 E78.59057
G1 X26.062 Y18.787 E78.64793
G1 X25.219 Y18.879 E78.70464
G1 X24.375 Y19.009 E78.76167
G1 X23.537 Y19.175 E78.81871
G1 X22.708 Y19.377 E78.87575
G1 X21.888 Y19.615 E78.93278
G1 X21.079 Y19.889 E78.98982
G1 X20.283 Y20.197 E79.04686
G1 X19.501 Y20.540 E79.10389
G1 X18.735 Y20.917 E79.16093
G1 X17.986 Y21.326 E79.21796
G1 X17.255 Y21.768 E79.27500
G1 X16.544 Y22.241 E79.33204
G1 X15.855 Y22.744 E79.38907
G1 X15.188 Y23.277 E79.44611
G1 X14.544 Y23.838 E79.50315
G1 X13.926 Y24.427 E79.56018
G1 X13.334 Y25.042 E79.61722
G1 X12.770 Y25.683 E79.67425
G1 X12.233 Y26.347 E79.73129
G1 X11.726 Y27.034 E79.78833
G1 X11.250 Y27.742 E79.84536
G1 X10.804 Y28.471 E79.90240
G1 X10.391 Y29.218 E79.95943
G1 X10.011 Y29.982 E80.01647
G1 X9.664 Y30.762 E80.07351
G1 X9.352 Y31.557 E80.13054
G1 X9.074 Y32.364 E80.18758
G1 X8.832 Y33.183 E80.24462
G1 X8.625 Y34.011 E80.30165
G1 X8.430 Y34.969 E80.36691
G1 X-3.142 Y34.969 E81.13997
G1 X-3.142 Y13.840 E82.55148
G1 X-2.553 Y34.647 F9000.000
M101 ; extruder on
G1 X-2.820 Y34.380 E82.57677 F4320.000
G1 X-2.820 Y33.621 E82.62756
G1 X-1.794 Y34.647 E82.72467
G1 X-1.035 Y34.647 E82.77545
G1 X-2.820 Y32.862 E82.94439
G1 X-2.820 Y32.103 E82.99517
G1 X-0.276 Y34.647 E83.23593
G1 X0.483 Y34.647 E83.28671
G1 X-2.820 Y31.344 E83.59929
G1 X-2.820 Y30.586 E83.65008
G1 X1.241 Y34.647 E84.03448
G1 X2.000 Y34.647 E84.08527
G1 X-2.820 Y29.827 E84.54149
G1 X-2.820 Y29.068 E84.59228
G1 X2.759 Y34.647 E85.12033
G1 X3.518 Y34.647 E85.17111
G1 X-2.820 Y28.309 E85.77098
G1 X-2.820 Y27.550 E85.82177
G1 X4.277 Y34.647 E86.49346
G1 X5.036 Y34.647 E86.54425
G1 X-2.820 Y26.791 E87.28776
G1 X-2.820 Y26.032 E87.33855
G1 X5.795 Y34.647 E88.15389
G1 X6.553 Y34.647 E88.20468
G1 X-2.820 Y25.274 E89.09184
G1 X-2.820 Y24.515 E89.14263
G1 X7.312 Y34.647 E90.10161
G1 X8.071 Y34.647 E90.15240
G1 X-2.820 Y23.756 E91.18320
G1 X-2.820 Y22.997 E91.23399
G1 X8.297 Y34.114 E92.28616
G1 X8.445 Y33.503 E92.32821
G1 X-2.820 Y22.238 E93.39442
G1 X-2.820 Y21.479 E93.44521
G1 X8.607 Y32.906 E94.52672
G1 X8.781 Y32.321 E94.56755
G1 X-2.820 Y20.721 E95.66556
G1 X-2.820 Y19.962 E95.71634
G1 X8.975 Y31.757 E96.83273
G1 X9.181 Y31.204 E96.87222
G1 X-2.820 Y19.203 E98.00808
G1 X-2.820 Y18.444 E98.05887
G1 X9.397 Y30.661 E99.21517
G1 X9.630 Y30.136 E99.25365
G1 X-2.820 Y17.685 E100.43206
G1 X-2.820 Y16.926 E100.48284
G1 X9.875 Y29.621 E101.68436
G1 X10.127 Y29.115 E101.72222
G1 X-2.820 Y16.167 E102.94765
G1 X-2.820 Y15.409 E102.99843
G1 X10.398 Y28.626 E104.24944
G1 X10.676 Y28.146 E104.28660
G1 X-2.820 Y14.650 E105.56397
G1 X-2.609 Y14.101 E105.60328
G1 X10.964 Y27.675 E106.88797
G1 X11.267 Y27.219 E106.92459
