; generated by Slic3r 1.2.9 on 2016-12-03 at 13:01:26

; external perimeters extrusion width = 0.40mm
; perimeters extrusion width = 0.67mm
; infill extrusion width = 0.67mm
; solid infill extrusion width = 0.67mm
; top infill extrusion width = 0.67mm

M127
M104 S230 T0 ; set temperature
(**** Start.gcode for Replicator 2 ****)
M103 ;disable RPM
M73 P0 ;enable build progress
G21 ;set units to mm
G90 ;set positioning to absolute
(**** begin homing ****)
G162 X Y F2500 ;home XY axes maximum
G161 Z F1100 ;home Z axis minimum
G92 Z-5 ;set Z to -5
G1 Z0.0 ;move Z to "0"
G161 Z F100 ;home Z axis minimum
M132 X Y Z A B ;Recall stored home offsets for XYZAB axis
(**** end homing ****)
G1 X-141 Y-74 Z75 F3300.0 ;move to waiting position
G130 X20 Y20 Z20 A20 B20 ;Lower stepper Vrefs while heating
M6 T0 ;wait for toolhead, and HBP to reach temperature
M70 P5 (We Be Making Things!)
G130 X127 Y127 Z40 A127 B127 ;Set Stepper motor Vref to defaults
M108 R3.0 T0
G0 X-141 Y-74 ;Position Nozzle
G0 Z1 ;Move above plate
G1 Z0.3 ;Position Height
M108 R5.0 ;Set Extruder Speed
M101 ;Start Extruder
G4 P3000 ;Create Anchor
G1 X-137 Y-70 Z0.1 F1000.0 ;Slow wipe
G0 Z0.3 ;and lift
(**** end of Start.gcode ****)
M73 P0
G1 Z0.300 F9000.000
(**** New Layer ****)
G1 E-3.00000 F1800.00000
M103 ; extruder off
G1 X0.000 Y50.636 F9000.000
M101 ; extruder on
G1 E0.00000 F1800.00000
G1 X-66.500 Y50.636 E4.44256 F4320.000
G1 X-68.743 Y50.239 E4.59473
G1 X-70.714 Y49.096 E4.74690
G1 X-72.172 Y47.347 E4.89907
G1 X-73.036 Y44.100 E5.12350
G1 X-73.036 Y18.700 E6.82036
G1 X-72.643 Y16.469 E6.97167
G1 X-49.840 Y-46.331 E11.43506
G1 X-48.701 Y-48.303 E11.58723
G1 X-46.955 Y-49.766 E11.73940
G1 X-43.697 Y-50.636 E11.96468
G1 X66.500 Y-50.636 E19.32642
G1 X68.743 Y-50.239 E19.47859
M101 ; extruder on
G1 X70.713 Y-49.096 E19.63077 F4320.000
G1 X72.172 Y-47.347 E19.78294
G1 X73.036 Y-44.100 E20.00737
G1 X73.036 Y-18.700 E21.70422
G1 X72.639 Y-16.458 E21.85633
G1 X49.704 Y46.342 E26.32274
G1 X48.562 Y48.313 E26.47491
G1 X46.812 Y49.772 E26.62708
G1 X43.565 Y50.636 E26.85157
G1 X0.060 Y50.636 E29.75794
G1 E26.75794 F1800.00000
M103 ; extruder off
G1 X34.439 Y2.815 F9000.000
M101 ; extruder on
G1 E29.75794 F1800.00000
G1 X34.136 Y2.766 E29.77842 F1620.000
G1 X33.841 Y2.684 E29.79891
G1 X33.556 Y2.570 E29.81939
G1 X33.285 Y2.427 E29.83988
G1 X33.031 Y2.254 E29.86036
G1 X32.797 Y2.056 E29.88085
G1 X32.586 Y1.833 E29.90133
G1 X32.401 Y1.589 E29.92182
G1 X32.243 Y1.326 E29.94230
G1 X32.114 Y1.048 E29.96279
G1 X32.016 Y0.758 E29.98327
G1 X31.950 Y0.458 E30.00376
G1 X31.917 Y0.153 E30.02424
G1 X31.917 Y-0.153 E30.04472
G1 X31.950 Y-0.458 E30.06521
G1 X32.013 Y-0.742 E30.08461
G1 X32.114 Y-1.049 E30.10622
G1 X32.243 Y-1.327 E30.12666
G1 X32.401 Y-1.589 E30.14714
G1 X32.586 Y-1.833 E30.16763
G1 X32.797 Y-2.056 E30.18811
G1 X33.031 Y-2.254 E30.20860
G1 X33.285 Y-2.427 E30.22908
G1 X33.556 Y-2.570 E30.24957
G1 X33.841 Y-2.684 E30.27005
G1 X34.136 Y-2.766 E30.29054
G1 X34.439 Y-2.815 E30.31102
G1 X34.745 Y-2.832 E30.33151
G1 X35.035 Y-2.816 E30.35091
M101 ; extruder on
G1 X35.354 Y-2.766 E30.37252 F1620.000
G1 X35.649 Y-2.684 E30.39296
G1 X35.934 Y-2.570 E30.41344
G1 X36.205 Y-2.427 E30.43392
G1 X36.459 Y-2.254 E30.45441
G1 X36.692 Y-2.056 E30.47489
G1 X36.903 Y-1.833 E30.49538
G1 X37.089 Y-1.589 E30.51586
G1 X37.247 Y-1.327 E30.53635
G1 X37.376 Y-1.048 E30.55683
G1 X37.474 Y-0.758 E30.57732
G1 X37.539 Y-0.458 E30.59780
G1 X37.573 Y-0.153 E30.61829
G1 X37.573 Y0.153 E30.63877
G1 X37.539 Y0.458 E30.65926
G1 X37.474 Y0.758 E30.67974
G1 X37.376 Y1.048 E30.70023
G1 X37.254 Y1.312 E30.71963
G1 X37.088 Y1.590 E30.74124
G1 X36.903 Y1.833 E30.76168
G1 X36.692 Y2.056 E30.78216
G1 X36.459 Y2.254 E30.80265
G1 X36.205 Y2.427 E30.82313
G1 X35.934 Y2.570 E30.84362
G1 X35.649 Y2.684 E30.86410
G1 X35.354 Y2.766 E30.88459
G1 X35.051 Y2.815 E30.90507
G1 X34.745 Y2.832 E30.92556
G1 X34.499 Y2.819 E30.94203
G1 X34.320 Y2.533 F9000.000
G1 X34.542 Y1.865 F9000.000
M101 ; extruder on
G1 X34.339 Y1.843 E30.95565 F1620.000
G1 X33.967 Y1.718 E30.98189
G1 X33.766 Y1.612 E30.99706
G1 X33.447 Y1.370 E31.02380
G1 X33.183 Y1.059 E31.05106
G1 X32.992 Y0.698 E31.07831
G1 X32.887 Y0.320 E31.10454
G1 X32.861 Y0.095 E31.11971
G1 X32.883 Y-0.305 E31.14645
G1 X32.988 Y-0.684 E31.17269
G1 X33.082 Y-0.890 E31.18786
G1 X33.307 Y-1.221 E31.21460
G1 X33.603 Y-1.502 E31.24186
G1 X33.953 Y-1.712 E31.26911
G1 X34.339 Y-1.843 E31.29636
M101 ; extruder on
G1 X34.730 Y-1.885 E31.32260 F1620.000
G1 X34.956 Y-1.874 E31.33777
G1 X35.347 Y-1.788 E31.36451
G1 X35.718 Y-1.617 E31.39177
G1 X36.042 Y-1.370 E31.41903
G1 X36.307 Y-1.059 E31.44628
G1 X36.498 Y-0.698 E31.47354
G1 X36.606 Y-0.309 E31.50052
G1 X36.631 Y0.000 E31.52124
G1 X36.606 Y0.309 E31.54197
G1 X36.498 Y0.698 E31.56895
G1 X36.307 Y1.059 E31.59621
G1 X36.042 Y1.370 E31.62346
G1 X35.718 Y1.617 E31.65072
G1 X35.347 Y1.788 E31.67797
G1 X34.957 Y1.874 E31.70468
G1 X34.737 Y1.886 E31.71941
G1 X34.602 Y1.871 E31.72848
G1 X34.422 Y2.029 F9000.000
G1 X34.478 Y2.338 F9000.000
M101 ; extruder on
G1 X34.238 Y2.305 E31.76280 F1620.000
G1 X33.755 Y2.140 E31.83506
G1 X33.498 Y2.001 E31.87636
G1 X33.107 Y1.697 E31.94657
G1 X32.792 Y1.324 E32.01572
G1 X32.553 Y0.873 E32.08800
G1 X32.426 Y0.426 E32.15382
G1 X32.389 Y0.091 E32.20156
M101 ; extruder on
G1 X32.421 Y-0.403 E32.27169 F1620.000
G1 X32.549 Y-0.861 E32.33906
G1 X32.679 Y-1.136 E32.38220
G1 X32.946 Y-1.528 E32.44932
G1 X33.126 Y-1.709 E32.48548
G1 X33.317 Y-1.879 E32.52163
G1 X33.754 Y-2.142 E32.59390
G1 X34.259 Y-2.308 E32.66919
G1 X34.732 Y-2.358 E32.73657
G1 X35.036 Y-2.339 E32.77970
G1 X35.498 Y-2.236 E32.84682
G1 X35.733 Y-2.136 E32.88297
G1 X35.961 Y-2.022 E32.91912
G1 X36.368 Y-1.713 E32.99140
G1 X36.698 Y-1.324 E33.06368
G1 X36.824 Y-1.102 E33.09983
G1 X36.937 Y-0.873 E33.13598
G1 X37.067 Y-0.411 E33.20404
G1 X37.102 Y-0.016 E33.26012
G1 X37.074 Y0.373 E33.31541
G1 X36.937 Y0.873 E33.38891
G1 X36.697 Y1.326 E33.46147
G1 X36.539 Y1.524 E33.49734
G1 X36.368 Y1.713 E33.53349
G1 X35.961 Y2.022 E33.60577
G1 X35.498 Y2.236 E33.67805
G1 X35.251 Y2.298 E33.71420
G1 X35.000 Y2.345 E33.75034
G1 X34.741 Y2.359 E33.78713
G1 X34.537 Y2.343 E33.81599
M73 P0
G1 Z0.300 F9000.000
(**** New Layer ****)
G1 E30.81599 F1800.00000
M103 ; extruder off
G1 X3.300 Y-19.000 F9000.000
M101 ; extruder on
G1 E33.81599 F1800.00000
G1 X3.300 Y-43.800 E35.47277 F1080.000
G1 X66.200 Y-43.800 E39.67483
G1 X66.200 Y-19.000 E41.33160
G1 X3.360 Y-19.000 E45.52966
G1 X3.500 Y-19.346 F9000.000
G1 X3.836 Y-19.536 F9000.000
M101 ; extruder on
G1 X3.836 Y-43.264 E47.11487 F2160.000
G1 X65.664 Y-43.264 E51.24536
G1 X65.664 Y-19.536 E52.83057
G1 X3.896 Y-19.536 E56.95706
G1 X57.746 Y-30.892 F9000.000
M101 ; extruder on
G1 X57.692 Y-31.298 E56.98446 F1620.000
G1 X57.710 Y-31.708 E57.01185
G1 X57.829 Y-32.195 E57.04535
G1 X58.004 Y-32.570 E57.07296
G1 X58.300 Y-32.974 E57.10647
G1 X58.605 Y-33.253 E57.13408
G1 X59.037 Y-33.515 E57.16780
G1 X59.515 Y-33.677 E57.20153
M101 ; extruder on
G1 X59.924 Y-33.731 E57.22914 F1620.000
G1 X60.425 Y-33.699 E57.26264
G1 X60.824 Y-33.592 E57.29025
G1 X61.274 Y-33.370 E57.32376
G1 X61.599 Y-33.120 E57.35114
G1 X61.876 Y-32.818 E57.37854
G1 X62.136 Y-32.389 E57.41204
G1 X62.278 Y-32.001 E57.43965
G1 X62.354 Y-31.505 E57.47316
G1 X62.336 Y-31.092 E57.50077
G1 X62.216 Y-30.602 E57.53449
G1 X61.993 Y-30.149 E57.56822
G1 X61.741 Y-29.821 E57.59583
G1 X61.364 Y-29.490 E57.62933
G1 X61.006 Y-29.284 E57.65694
G1 X60.531 Y-29.123 E57.69045
G1 X60.125 Y-29.069 E57.71784
G1 X59.715 Y-29.087 E57.74523
G1 X59.228 Y-29.206 E57.77873
G1 X58.853 Y-29.381 E57.80634
G1 X58.449 Y-29.677 E57.83985
G1 X58.170 Y-29.982 E57.86746
G1 X57.908 Y-30.414 E57.90118
G1 X57.765 Y-30.835 E57.93090
G1 X57.367 Y-31.020 F9000.000
G1 X57.215 Y-30.822 F9000.000
M101 ; extruder on
G1 X57.155 Y-31.275 E57.96142 F1620.000
G1 X57.177 Y-31.784 E57.99547
G1 X57.321 Y-32.374 E58.03602
G1 X57.541 Y-32.844 E58.07068
G1 X57.900 Y-33.333 E58.11123
G1 X58.282 Y-33.684 E58.14589
G1 X58.809 Y-34.003 E58.18706
G1 X59.393 Y-34.202 E58.22823
M101 ; extruder on
G1 X59.907 Y-34.269 E58.26288 F1620.000
G1 X60.513 Y-34.230 E58.30344
G1 X61.014 Y-34.095 E58.33810
G1 X61.558 Y-33.827 E58.37865
G1 X61.962 Y-33.517 E58.41269
G1 X62.307 Y-33.141 E58.44674
G1 X62.622 Y-32.622 E58.48729
G1 X62.799 Y-32.134 E58.52195
G1 X62.891 Y-31.534 E58.56251
G1 X62.869 Y-31.016 E58.59716
G1 X62.722 Y-30.417 E58.63833
G1 X62.450 Y-29.865 E58.67950
G1 X62.134 Y-29.453 E58.71416
G1 X61.678 Y-29.053 E58.75471
G1 X61.228 Y-28.794 E58.78937
G1 X60.653 Y-28.598 E58.82993
G1 X60.148 Y-28.532 E58.86397
G1 X59.639 Y-28.554 E58.89801
G1 X59.049 Y-28.698 E58.93857
G1 X58.579 Y-28.918 E58.97323
G1 X58.090 Y-29.277 E59.01378
G1 X57.739 Y-29.659 E59.04844
G1 X57.420 Y-30.186 E59.08961
G1 X57.224 Y-30.763 E59.13029
G1 X11.809 Y-31.502 F9000.000
M101 ; extruder on
G1 X11.776 Y-30.998 E59.16402 F1620.000
G1 X11.669 Y-30.599 E59.19163
G1 X11.447 Y-30.149 E59.22513
G1 X11.197 Y-29.824 E59.25252
G1 X10.895 Y-29.547 E59.27991
G1 X10.463 Y-29.285 E59.31364
G1 X9.985 Y-29.123 E59.34736
G1 X9.579 Y-29.069 E59.37475
G1 X9.169 Y-29.087 E59.40214
G1 X8.679 Y-29.207 E59.43587
G1 X8.226 Y-29.430 E59.46959
G1 X7.901 Y-29.680 E59.49698
G1 X7.624 Y-29.982 E59.52437
G1 X7.362 Y-30.414 E59.55810
G1 X7.200 Y-30.892 E59.59182
G1 X7.146 Y-31.298 E59.61922
G1 X7.164 Y-31.708 E59.64661
G1 X7.283 Y-32.195 E59.68011
G1 X7.458 Y-32.570 E59.70772
G1 X7.754 Y-32.974 E59.74123
G1 X8.059 Y-33.253 E59.76883
G1 X8.491 Y-33.515 E59.80256
G1 X8.969 Y-33.677 E59.83629
M101 ; extruder on
G1 X9.378 Y-33.731 E59.86390 F1620.000
G1 X9.879 Y-33.699 E59.89740
G1 X10.278 Y-33.592 E59.92501
G1 X10.728 Y-33.370 E59.95852
G1 X11.053 Y-33.120 E59.98591
G1 X11.330 Y-32.818 E60.01330
G1 X11.590 Y-32.389 E60.04680
G1 X11.732 Y-32.001 E60.07441
G1 X11.799 Y-31.561 E60.10413
G1 X12.156 Y-31.304 F9000.000
G1 X12.338 Y-31.583 F9000.000
M101 ; extruder on
G1 X12.307 Y-30.910 E60.14913 F1620.000
G1 X12.172 Y-30.409 E60.18379
G1 X11.904 Y-29.865 E60.22434
G1 X11.594 Y-29.460 E60.25839
G1 X11.218 Y-29.116 E60.29243
G1 X10.691 Y-28.797 E60.33360
G1 X10.107 Y-28.598 E60.37477
G1 X9.602 Y-28.532 E60.40881
G1 X9.093 Y-28.554 E60.44286
G1 X8.494 Y-28.701 E60.48403
G1 X7.942 Y-28.973 E60.52520
G1 X7.538 Y-29.283 E60.55924
G1 X7.193 Y-29.659 E60.59329
G1 X6.874 Y-30.186 E60.63445
G1 X6.675 Y-30.770 E60.67562
G1 X6.609 Y-31.275 E60.70967
G1 X6.631 Y-31.784 E60.74371
G1 X6.775 Y-32.374 E60.78427
G1 X6.995 Y-32.844 E60.81892
G1 X7.354 Y-33.333 E60.85948
G1 X7.736 Y-33.684 E60.89414
G1 X8.263 Y-34.003 E60.93531
G1 X8.847 Y-34.202 E60.97647
M101 ; extruder on
G1 X9.361 Y-34.269 E61.01113 F1620.000
G1 X9.967 Y-34.230 E61.05169
G1 X10.468 Y-34.095 E61.08635
G1 X11.012 Y-33.827 E61.12690
G1 X11.416 Y-33.517 E61.16094
G1 X11.761 Y-33.141 E61.19499
G1 X12.076 Y-32.622 E61.23554
G1 X12.253 Y-32.134 E61.27020
G1 X12.329 Y-31.643 E61.30344
G1 X12.579 Y-32.257 F9000.000
M101 ; extruder on
G1 X24.978 Y-19.857 E62.48072 F4320.000
G1 X24.217 Y-19.857 E62.53182
G1 X12.655 Y-31.419 E63.62956
G1 X12.569 Y-30.744 E63.67524
G1 X23.455 Y-19.857 E64.70891
G1 X22.694 Y-19.857 E64.76001
G1 X12.374 Y-30.178 E65.73990
G1 X12.110 Y-29.680 E65.77771
G1 X21.933 Y-19.857 E66.71036
G1 X21.172 Y-19.857 E66.76147
G1 X11.775 Y-29.254 E67.65366
G1 X11.378 Y-28.890 E67.68984
G1 X20.410 Y-19.857 E68.54747
G1 X19.649 Y-19.857 E68.59858
G1 X10.906 Y-28.600 E69.42871
G1 X10.366 Y-28.379 E69.46788
G1 X18.888 Y-19.857 E70.27698
G1 X18.127 Y-19.857 E70.32808
G1 X9.744 Y-28.240 E71.12401
G1 X8.991 Y-28.232 E71.17455
G1 X17.366 Y-19.857 E71.96966
G1 X16.604 Y-19.857 E72.02077
G1 X7.891 Y-28.571 E72.84806
G1 X4.157 Y-20.124 F9000.000
M101 ; extruder on
G1 X4.424 Y-19.857 E72.87343 F4320.000
G1 X5.186 Y-19.857 E72.92454
G1 X4.157 Y-20.886 E73.02218
G1 X4.157 Y-21.647 E73.07329
G1 X5.947 Y-19.857 E73.24321
G1 X6.708 Y-19.857 E73.29432
G1 X4.157 Y-22.408 E73.53651
G1 X4.157 Y-23.169 E73.58762
G1 X7.469 Y-19.857 E73.90210
G1 X8.231 Y-19.857 E73.95320
G1 X4.157 Y-23.931 E74.33996
G1 X4.157 Y-24.692 E74.39106
G1 X8.992 Y-19.857 E74.85009
G1 X9.753 Y-19.857 E74.90120
G1 X4.157 Y-25.453 E75.43251
G1 X4.157 Y-26.214 E75.48361
G1 X10.514 Y-19.857 E76.08720
G1 X11.276 Y-19.857 E76.13831
G1 X4.157 Y-26.976 E76.81417
G1 X4.157 Y-27.737 E76.86527
G1 X12.037 Y-19.857 E77.61341
G1 X12.798 Y-19.857 E77.66452
G1 X4.157 Y-28.498 E78.48493
G1 X4.157 Y-29.259 E78.53604
G1 X13.559 Y-19.857 E79.42873
G1 X14.321 Y-19.857 E79.47984
G1 X4.157 Y-30.021 E80.44481
G1 X4.157 Y-30.782 E80.49592
G1 X15.082 Y-19.857 E81.53316
G1 X15.843 Y-19.857 E81.58427
G1 X4.157 Y-31.543 E82.69379
G1 X4.157 Y-32.304 E82.74490
G1 X6.615 Y-29.846 E82.97827
G1 X6.317 Y-30.906 E83.05215
G1 X4.157 Y-33.066 E83.25722
G1 X4.157 Y-33.827 E83.30833
G1 X6.309 Y-31.675 E83.51266
G1 X6.450 Y-32.296 E83.55540
G1 X4.157 Y-34.588 E83.77306
G1 X4.157 Y-35.349 E83.82416
G1 X6.675 Y-32.831 E84.06324
G1 X6.979 Y-33.289 E84.10011
G1 X4.157 Y-36.110 E84.36798
G1 X4.157 Y-36.872 E84.41909
G1 X7.338 Y-33.691 E84.72106
G1 X7.763 Y-34.027 E84.75746
G1 X4.157 Y-37.633 E85.09984
G1 X4.157 Y-38.394 E85.15095
G1 X8.246 Y-34.305 E85.53918
G1 X8.815 Y-34.498 E85.57948
G1 X4.157 Y-39.155 E86.02167
G1 X4.157 Y-39.917 E86.07278
G1 X9.483 Y-34.591 E86.57841
G1 X10.338 Y-34.498 E86.63615
G1 X4.157 Y-40.678 E87.22295
G1 X4.157 Y-41.439 E87.27406
G1 X25.739 Y-19.857 E89.32318
G1 X26.500 Y-19.857 E89.37429
G1 X4.157 Y-42.200 E91.49569
G1 X4.187 Y-42.932 E91.54486
G1 X27.262 Y-19.857 E93.73574
G1 X28.023 Y-19.857 E93.78685
G1 X4.937 Y-42.943 E95.97873
G1 X5.699 Y-42.943 E96.02984
G1 X28.784 Y-19.857 E98.22172
G1 X29.545 Y-19.857 E98.27283
G1 X6.460 Y-42.943 E100.46472
G1 X7.221 Y-42.943 E100.51582
G1 X30.307 Y-19.857 E102.70771
G1 X31.068 Y-19.857 E102.75881
G1 X7.982 Y-42.943 E104.95070
G1 X8.744 Y-42.943 E105.00180
G1 X31.829 Y-19.857 E107.19369
G1 X32.590 Y-19.857 E107.24480
G1 X9.505 Y-42.943 E109.43668
G1 X10.266 Y-42.943 E109.48779
G1 X33.352 Y-19.857 E111.67967
G1 X34.113 Y-19.857 E111.73078
G1 X11.027 Y-42.943 E113.92266
G1 X11.789 Y-42.943 E113.97377
G1 X34.874 Y-19.857 E116.16565
G1 X35.635 Y-19.857 E116.21676
G1 X12.550 Y-42.943 E118.40864
G1 X13.311 Y-42.943 E118.45975
G1 X36.397 Y-19.857 E120.65163
G1 X37.158 Y-19.857 E120.70274
G1 X14.072 Y-42.943 E122.89462
G1 X14.834 Y-42.943 E122.94573
G1 X37.919 Y-19.857 E125.13761
G1 X38.680 Y-19.857 E125.18872
G1 X15.595 Y-42.943 E127.38060
G1 X16.356 Y-42.943 E127.43171
G1 X39.442 Y-19.857 E129.62359
G1 X40.203 Y-19.857 E129.67470
G1 X17.117 Y-42.943 E131.86658
G1 X17.879 Y-42.943 E131.91769
G1 X40.964 Y-19.857 E134.10958
G1 X41.725 Y-19.857 E134.16068
G1 X18.640 Y-42.943 E136.35257
G1 X19.401 Y-42.943 E136.40367
G1 X42.487 Y-19.857 E138.59556
G1 X43.248 Y-19.857 E138.64666
G1 X20.162 Y-42.943 E140.83855
G1 X20.923 Y-42.943 E140.88965
G1 X44.009 Y-19.857 E143.08154
G1 X44.770 Y-19.857 E143.13265
G1 X21.685 Y-42.943 E145.32453
G1 X22.446 Y-42.943 E145.37564
G1 X45.531 Y-19.857 E147.56752
G1 X46.293 Y-19.857 E147.61863
G1 X23.207 Y-42.943 E149.81051
G1 X23.968 Y-42.943 E149.86162
G1 X47.054 Y-19.857 E152.05350
G1 X47.815 Y-19.857 E152.10461
G1 X24.730 Y-42.943 E154.29649
G1 X25.491 Y-42.943 E154.34760
G1 X48.576 Y-19.857 E156.53948
G1 X49.338 Y-19.857 E156.59059
G1 X26.252 Y-42.943 E158.78247
G1 X27.013 Y-42.943 E158.83358
G1 X50.099 Y-19.857 E161.02546
G1 X50.860 Y-19.857 E161.07657
G1 X27.775 Y-42.943 E163.26845
G1 X28.536 Y-42.943 E163.31956
G1 X51.621 Y-19.857 E165.51144
G1 X52.383 Y-19.857 E165.56255
G1 X29.297 Y-42.943 E167.75443
G1 X30.058 Y-42.943 E167.80554
G1 X53.144 Y-19.857 E169.99743
G1 X53.905 Y-19.857 E170.04853
G1 X30.820 Y-42.943 E172.24042
G1 X31.581 Y-42.943 E172.29152
G1 X54.666 Y-19.857 E174.48341
G1 X55.428 Y-19.857 E174.53451
G1 X32.342 Y-42.943 E176.72640
G1 X33.103 Y-42.943 E176.77750
G1 X56.189 Y-19.857 E178.96939
G1 X56.950 Y-19.857 E179.02050
G1 X33.865 Y-42.943 E181.21238
G1 X34.626 Y-42.943 E181.26349
G1 X57.711 Y-19.857 E183.45537
G1 X58.473 Y-19.857 E183.50648
G1 X35.387 Y-42.943 E185.69836
