; generated by Slic3r 1.2.9 on 2016-12-14 at 23:12:58

; external perimeters extrusion width = 0.40mm
; perimeters extrusion width = 0.67mm
; infill extrusion width = 0.67mm
; solid infill extrusion width = 0.67mm
; top infill extrusion width = 0.67mm

M127
M104 S230 T0 ; set temperature
(**** Start.gcode for Replicator 2 ****)
M103 ;disable RPM
M73 P0 ;enable build progress
G21 ;set units to mm
G90 ;set positioning to absolute
(**** begin homing ****)
G162 X Y F2500 ;home XY axes maximum
G161 Z F1100 ;home Z axis minimum
G92 Z-5 ;set Z to -5
G1 Z0.0 ;move Z to "0"
G161 Z F100 ;home Z axis minimum
M132 X Y Z A B ;Recall stored home offsets for XYZAB axis
(**** end homing ****)
G1 X-141 Y-74 Z75 F3300.0 ;move to waiting position
G130 X20 Y20 Z20 A20 B20 ;Lower stepper Vrefs while heating
M6 T0 ;wait for toolhead, and HBP to reach temperature
M70 P5 (We Be Making Things!)
G130 X127 Y127 Z40 A127 B127 ;Set Stepper motor Vref to defaults
M108 R3.0 T0
G0 X-141 Y-74 ;Position Nozzle
G0 Z1 ;Move above plate
G1 Z0.3 ;Position Height
M108 R5.0 ;Set Extruder Speed
M101 ;Start Extruder
G4 P3000 ;Create Anchor
G1 X-137 Y-70 Z0.1 F1000.0 ;Slow wipe
G0 Z0.3 ;and lift
(**** end of Start.gcode ****)
M73 P0
G1 Z0.300 F9000.000
(**** New Layer ****)
G1 E-4.00000 F1800.00000
M103 ; extruder off
G1 X12.610 Y-4.590 F9000.000
M101 ; extruder on
G1 E0.00000 F1800.00000
G1 X12.922 Y-3.622 E0.06791 F4320.000
G1 X13.068 Y-3.055 E0.10703
G1 X13.189 Y-2.482 E0.14619
G1 X13.285 Y-1.905 E0.18526
G1 X13.355 Y-1.323 E0.22438
G1 X13.414 Y-0.431 E0.28410
G1 X13.414 Y0.431 E0.34173
G1 X13.382 Y1.016 E0.38083
G1 X13.325 Y1.599 E0.41995
G1 X13.242 Y2.178 E0.45907
G1 X13.135 Y2.754 E0.49821
G1 X13.002 Y3.325 E0.53739
G1 X12.845 Y3.888 E0.57642
G1 X12.663 Y4.445 E0.61556
G1 X12.457 Y4.993 E0.65464
G1 X12.097 Y5.811 E0.71437
G1 X11.832 Y6.333 E0.75349
G1 X11.545 Y6.843 E0.79260
G1 X11.081 Y7.571 E0.85023
G1 X10.740 Y8.047 E0.88936
G1 X10.379 Y8.508 E0.92845
G1 X9.998 Y8.952 E0.96758
G1 X9.603 Y9.375 E1.00625
G1 X8.952 Y9.998 E1.06641
G1 X8.508 Y10.379 E1.10552
G1 X8.047 Y10.740 E1.14464
G1 X7.340 Y11.235 E1.20229
G1 X6.843 Y11.545 E1.24138
G1 X6.333 Y11.832 E1.28049
G1 X5.811 Y12.097 E1.31961
G1 X5.278 Y12.339 E1.35872
G1 X4.445 Y12.663 E1.41845
G1 X3.888 Y12.845 E1.45756
G1 X3.324 Y13.002 E1.49668
G1 X2.754 Y13.135 E1.53579
G1 X2.178 Y13.242 E1.57491
G1 X1.322 Y13.355 E1.63263
G1 X0.739 Y13.400 E1.67165
G1 X0.154 Y13.420 E1.71076
G1 X-0.739 Y13.400 E1.77048
G1 X-1.323 Y13.355 E1.80960
G1 X-1.905 Y13.285 E1.84872
G1 X-2.482 Y13.189 E1.88784
G1 X-3.055 Y13.068 E1.92695
G1 X-3.889 Y12.845 E1.98460
G1 X-4.446 Y12.663 E2.02376
G1 X-4.993 Y12.457 E2.06280
G1 X-5.532 Y12.227 E2.10194
G1 X-6.054 Y11.977 E2.14060
G1 X-6.843 Y11.545 E2.20075
G1 X-7.340 Y11.235 E2.23988
G1 X-7.823 Y10.904 E2.27898
G1 X-8.508 Y10.379 E2.33664
G1 X-8.953 Y9.998 E2.37574
G1 X-9.380 Y9.598 E2.41484
G1 X-9.790 Y9.180 E2.45396
G1 X-10.181 Y8.744 E2.49307
G1 X-10.740 Y8.047 E2.55279
G1 X-11.081 Y7.571 E2.59191
G1 X-11.401 Y7.080 E2.63103
G1 X-11.699 Y6.576 E2.67015
G1 X-11.974 Y6.060 E2.70925
G1 X-12.339 Y5.278 E2.76688
G1 X-12.558 Y4.735 E2.80600
G1 X-12.752 Y4.183 E2.84511
G1 X-13.002 Y3.324 E2.90483
G1 X-13.135 Y2.754 E2.94395
G1 X-13.242 Y2.178 E2.98307
G1 X-13.325 Y1.599 E3.02218
G1 X-13.382 Y1.016 E3.06130
G1 X-13.420 Y0.153 E3.11897
G1 X-13.413 Y-0.433 E3.15812
G1 X-13.382 Y-1.016 E3.19715
G1 X-13.325 Y-1.599 E3.23627
G1 X-13.243 Y-2.172 E3.27495
G1 X-13.068 Y-3.055 E3.33510
G1 X-12.922 Y-3.622 E3.37421
G1 X-12.752 Y-4.183 E3.41334
G1 X-12.457 Y-4.994 E3.47101
G1 X-12.227 Y-5.532 E3.51007
G1 X-11.974 Y-6.060 E3.54924
G1 X-11.699 Y-6.576 E3.58831
G1 X-11.401 Y-7.080 E3.62742
G1 X-11.081 Y-7.571 E3.66654
G1 X-10.740 Y-8.047 E3.70565
G1 X-10.181 Y-8.744 E3.76538
G1 X-9.790 Y-9.180 E3.80448
G1 X-9.380 Y-9.598 E3.84361
G1 X-8.744 Y-10.181 E3.90123
G1 X-8.292 Y-10.553 E3.94034
G1 X-7.823 Y-10.904 E3.97946
G1 X-7.340 Y-11.235 E4.01857
G1 X-6.843 Y-11.545 E4.05769
G1 X-6.060 Y-11.975 E4.11742
G1 X-5.278 Y-12.339 E4.17504
G1 X-4.735 Y-12.557 E4.21415
G1 X-4.182 Y-12.752 E4.25326
G1 X-3.622 Y-12.922 E4.29238
G1 X-3.061 Y-13.067 E4.33108
G1 X-2.178 Y-13.242 E4.39122
G1 X-1.599 Y-13.325 E4.43033
G1 X-1.016 Y-13.382 E4.46945
G1 X-0.431 Y-13.414 E4.50856
G1 X0.154 Y-13.420 E4.54768
M101 ; extruder on
G1 X1.017 Y-13.382 E4.60536 F4320.000
G1 X1.599 Y-13.325 E4.64442
G1 X2.178 Y-13.242 E4.68353
G1 X3.055 Y-13.068 E4.74326
G1 X3.622 Y-12.922 E4.78237
G1 X4.182 Y-12.752 E4.82148
G1 X4.735 Y-12.557 E4.86061
G1 X5.278 Y-12.339 E4.89972
G1 X6.060 Y-11.974 E4.95739
G1 X6.576 Y-11.699 E4.99646
G1 X7.080 Y-11.401 E5.03558
G1 X7.823 Y-10.904 E5.09529
G1 X8.508 Y-10.379 E5.15296
G1 X8.953 Y-9.998 E5.19205
G1 X9.381 Y-9.598 E5.23119
G1 X9.790 Y-9.180 E5.27026
G1 X10.181 Y-8.744 E5.30937
G1 X10.740 Y-8.047 E5.36910
G1 X11.235 Y-7.340 E5.42671
G1 X11.545 Y-6.843 E5.46584
G1 X11.832 Y-6.333 E5.50495
G1 X12.227 Y-5.532 E5.56467
G1 X12.590 Y-4.646 E5.62858
G1 X12.107 Y-4.407 F9000.000
M101 ; extruder on
G1 X12.408 Y-3.472 E5.69415 F4320.000
G1 X12.664 Y-2.377 E5.76929
G1 X12.823 Y-1.265 E5.84434
G1 X12.878 Y-0.420 E5.90094
G1 X12.878 Y0.420 E5.95701
G1 X12.792 Y1.540 E6.03209
G1 X12.609 Y2.650 E6.10721
G1 X12.331 Y3.738 E6.18227
G1 X11.958 Y4.799 E6.25736
G1 X11.617 Y5.574 E6.31397
G1 X11.087 Y6.565 E6.38905
G1 X10.636 Y7.273 E6.44512
G1 X9.961 Y8.172 E6.52021
G1 X9.216 Y9.005 E6.59486
G1 X8.599 Y9.595 E6.65190
G1 X7.730 Y10.308 E6.72700
G1 X7.042 Y10.790 E6.78308
G1 X6.076 Y11.362 E6.85814
G1 X5.062 Y11.849 E6.93324
G1 X4.273 Y12.156 E6.98984
G1 X3.197 Y12.482 E7.06493
G1 X2.097 Y12.713 E7.14002
G1 X1.264 Y12.823 E7.19617
G1 X0.143 Y12.884 E7.27117
G1 X-0.704 Y12.866 E7.32777
G1 X-1.823 Y12.755 E7.40286
G1 X-2.928 Y12.548 E7.47795
G1 X-3.739 Y12.331 E7.53404
G1 X-4.799 Y11.958 E7.60910
G1 X-5.817 Y11.497 E7.68376
G1 X-6.565 Y11.087 E7.74080
G1 X-7.507 Y10.472 E7.81589
G1 X-8.173 Y9.961 E7.87198
G1 X-9.010 Y9.211 E7.94704
G1 X-9.778 Y8.391 E8.02213
G1 X-10.308 Y7.730 E8.07873
G1 X-10.943 Y6.802 E8.15383
G1 X-11.362 Y6.076 E8.20989
G1 X-11.849 Y5.062 E8.28498
G1 X-12.245 Y4.010 E8.36007
G1 X-12.482 Y3.197 E8.41667
G1 X-12.713 Y2.097 E8.49176
G1 X-12.847 Y0.981 E8.56686
G1 X-12.884 Y0.142 E8.62297
G1 X-12.847 Y-0.981 E8.69801
G1 X-12.714 Y-2.090 E8.77266
G1 X-12.548 Y-2.928 E8.82969
G1 X-12.245 Y-4.010 E8.90480
G1 X-11.958 Y-4.800 E8.96090
G1 X-11.494 Y-5.823 E9.03599
G1 X-10.943 Y-6.802 E9.11103
G1 X-10.308 Y-7.730 E9.18613
G1 X-9.778 Y-8.391 E9.24273
G1 X-9.010 Y-9.211 E9.31782
G1 X-8.391 Y-9.778 E9.37388
G1 X-7.507 Y-10.472 E9.44897
G1 X-6.566 Y-11.087 E9.52406
G1 X-5.823 Y-11.494 E9.58067
G1 X-4.799 Y-11.958 E9.65575
G1 X-3.738 Y-12.331 E9.73085
G1 X-2.928 Y-12.548 E9.78692
G1 X-1.823 Y-12.755 E9.86200
G1 X-0.981 Y-12.847 E9.91860
G1 X0.143 Y-12.884 E9.99369
M101 ; extruder on
G1 X0.982 Y-12.847 E10.04980 F4320.000
G1 X2.097 Y-12.713 E10.12484
G1 X2.928 Y-12.548 E10.18144
G1 X4.010 Y-12.245 E10.25653
G1 X5.062 Y-11.849 E10.33162
G1 X5.823 Y-11.494 E10.38773
G1 X6.802 Y-10.943 E10.46278
G1 X7.507 Y-10.472 E10.51937
G1 X8.173 Y-9.961 E10.57547
G1 X9.010 Y-9.211 E10.65057
G1 X9.778 Y-8.391 E10.72561
G1 X10.308 Y-7.730 E10.78221
G1 X10.790 Y-7.043 E10.83827
G1 X11.362 Y-6.076 E10.91336
G1 X11.737 Y-5.316 E10.96997
G1 X12.087 Y-4.463 E11.03154
G1 E7.03154 F1800.00000
M103 ; extruder off
G1 X2.915 Y-5.297 F9000.000
M101 ; extruder on
G1 E11.03154 F1800.00000
G1 X3.467 Y-4.957 E11.07484 F1620.000
G1 X4.085 Y-4.462 E11.12772
G1 X4.460 Y-4.087 E11.16319
G1 X4.800 Y-3.683 E11.19844
G1 X5.100 Y-3.253 E11.23348
G1 X5.484 Y-2.554 E11.28678
G1 X5.685 Y-2.069 E11.32182
G1 X5.844 Y-1.566 E11.35707
G1 X5.958 Y-1.051 E11.39233
G1 X6.026 Y-0.531 E11.42737
G1 X6.044 Y0.267 E11.48067
G1 X5.998 Y0.786 E11.51550
G1 X5.844 Y1.563 E11.56837
G1 X5.685 Y2.069 E11.60384
G1 X5.483 Y2.557 E11.63909
G1 X5.239 Y3.025 E11.67435
G1 X4.956 Y3.470 E11.70961
G1 X4.636 Y3.886 E11.74464
G1 X4.085 Y4.462 E11.79795
G1 X3.685 Y4.797 E11.83277
G1 X3.022 Y5.241 E11.88607
G1 X2.557 Y5.483 E11.92111
G1 X2.069 Y5.685 E11.95636
G1 X1.566 Y5.844 E11.99162
G1 X1.051 Y5.958 E12.02688
G1 X0.531 Y6.026 E12.06192
G1 X-0.267 Y6.044 E12.11522
G1 X-0.786 Y5.998 E12.15004
G1 X-1.569 Y5.843 E12.20334
G1 X-2.069 Y5.685 E12.23838
G1 X-2.557 Y5.483 E12.27364
G1 X-3.022 Y5.241 E12.30868
G1 X-3.680 Y4.801 E12.36155
G1 X-4.087 Y4.460 E12.39702
G1 X-4.460 Y4.087 E12.43227
G1 X-4.800 Y3.683 E12.46753
G1 X-5.100 Y3.253 E12.50257
G1 X-5.481 Y2.559 E12.55545
G1 X-5.685 Y2.069 E12.59092
G1 X-5.844 Y1.566 E12.62617
G1 X-5.958 Y1.051 E12.66143
G1 X-6.026 Y0.531 E12.69646
G1 X-6.044 Y-0.267 E12.74977
G1 X-5.998 Y-0.786 E12.78459
G1 X-5.844 Y-1.563 E12.83746
G1 X-5.685 Y-2.069 E12.87293
G1 X-5.483 Y-2.557 E12.90818
G1 X-5.239 Y-3.025 E12.94344
G1 X-4.956 Y-3.470 E12.97870
G1 X-4.636 Y-3.886 E13.01374
G1 X-4.085 Y-4.462 E13.06704
G1 X-3.685 Y-4.797 E13.10186
G1 X-3.022 Y-5.241 E13.15516
G1 X-2.557 Y-5.483 E13.19020
G1 X-2.069 Y-5.685 E13.22546
G1 X-1.566 Y-5.844 E13.26071
G1 X-1.051 Y-5.958 E13.29597
G1 X-0.530 Y-6.026 E13.33101
G1 X0.261 Y-6.044 E13.38389
G1 X0.790 Y-5.998 E13.41936
M101 ; extruder on
G1 X1.306 Y-5.907 E13.45439 F1620.000
G1 X2.066 Y-5.686 E13.50727
G1 X2.557 Y-5.483 E13.54274
G1 X2.862 Y-5.324 E13.56569
G1 X2.913 Y-4.897 F9000.000
G1 X2.667 Y-4.821 F9000.000
M101 ; extruder on
G1 X3.155 Y-4.521 E13.60393 F1620.000
G1 X3.727 Y-4.063 E13.65291
G1 X4.065 Y-3.725 E13.68486
G1 X4.374 Y-3.356 E13.71697
G1 X4.645 Y-2.970 E13.74849
G1 X5.000 Y-2.322 E13.79789
G1 X5.181 Y-1.886 E13.82941
G1 X5.326 Y-1.427 E13.86154
G1 X5.430 Y-0.957 E13.89368
G1 X5.491 Y-0.490 E13.92520
G1 X5.508 Y0.250 E13.97459
G1 X5.467 Y0.711 E14.00551
G1 X5.324 Y1.430 E14.05449
G1 X5.181 Y1.886 E14.08644
G1 X4.997 Y2.330 E14.11856
G1 X4.775 Y2.757 E14.15069
G1 X4.516 Y3.162 E14.18282
G1 X4.229 Y3.537 E14.21434
G1 X3.718 Y4.071 E14.26374
G1 X3.363 Y4.368 E14.29465
G1 X2.749 Y4.779 E14.34405
G1 X2.330 Y4.997 E14.37557
G1 X1.886 Y5.181 E14.40770
G1 X1.427 Y5.326 E14.43984
G1 X0.957 Y5.430 E14.47197
G1 X0.490 Y5.491 E14.50349
G1 X-0.250 Y5.508 E14.55289
G1 X-0.711 Y5.467 E14.58380
G1 X-1.436 Y5.323 E14.63319
G1 X-1.886 Y5.181 E14.66472
G1 X-2.330 Y4.997 E14.69685
G1 X-2.749 Y4.779 E14.72838
G1 X-3.359 Y4.372 E14.77736
G1 X-3.725 Y4.065 E14.80931
G1 X-4.065 Y3.725 E14.84142
G1 X-4.374 Y3.356 E14.87356
G1 X-4.645 Y2.970 E14.90509
G1 X-4.998 Y2.327 E14.95407
G1 X-5.181 Y1.885 E14.98602
G1 X-5.326 Y1.427 E15.01813
G1 X-5.430 Y0.957 E15.05026
G1 X-5.491 Y0.490 E15.08178
G1 X-5.508 Y-0.250 E15.13118
G1 X-5.467 Y-0.711 E15.16210
G1 X-5.324 Y-1.430 E15.21108
G1 X-5.181 Y-1.886 E15.24303
G1 X-4.997 Y-2.330 E15.27514
G1 X-4.775 Y-2.757 E15.30727
G1 X-4.516 Y-3.162 E15.33941
G1 X-4.229 Y-3.537 E15.37093
G1 X-3.718 Y-4.071 E15.42033
G1 X-3.363 Y-4.368 E15.45124
G1 X-2.749 Y-4.779 E15.50063
G1 X-2.330 Y-4.997 E15.53216
G1 X-1.886 Y-5.181 E15.56429
G1 X-1.427 Y-5.326 E15.59642
G1 X-0.957 Y-5.430 E15.62855
G1 X-0.489 Y-5.491 E15.66009
G1 X0.244 Y-5.508 E15.70907
G1 X0.720 Y-5.466 E15.74102
M101 ; extruder on
G1 X1.184 Y-5.384 E15.77253 F1620.000
G1 X1.888 Y-5.180 E15.82151
G1 X2.330 Y-4.997 E15.85346
G1 X2.614 Y-4.849 E15.87483
G1 X1.491 Y-1.379 F9000.000
M101 ; extruder on
G1 X1.758 Y-0.985 E15.90664 F1620.000
G1 X1.900 Y-0.673 E15.92954
G1 X1.986 Y-0.342 E15.95244
G1 X2.016 Y0.000 E15.97534
G1 X1.986 Y0.342 E15.99824
G1 X1.900 Y0.673 E16.02114
G1 X1.758 Y0.985 E16.04404
G1 X1.491 Y1.380 E16.07585
G1 X-1.491 Y1.380 E16.27507
G1 X-1.758 Y0.985 E16.30688
G1 X-1.900 Y0.673 E16.32978
G1 X-1.986 Y0.342 E16.35268
G1 X-2.016 Y0.000 E16.37558
G1 X-1.986 Y-0.342 E16.39848
G1 X-1.900 Y-0.673 E16.42138
G1 X-1.758 Y-0.985 E16.44428
G1 X-1.491 Y-1.379 E16.47609
G1 X1.431 Y-1.379 E16.67130
G1 X1.860 Y-1.534 F9000.000
G1 X1.775 Y-1.915 F9000.000
M101 ; extruder on
G1 X2.227 Y-1.248 E16.72513 F1620.000
G1 X2.407 Y-0.853 E16.75414
G1 X2.516 Y-0.433 E16.78315
G1 X2.553 Y0.000 E16.81215
G1 X2.516 Y0.433 E16.84116
G1 X2.407 Y0.853 E16.87017
G1 X2.227 Y1.248 E16.89917
G1 X1.775 Y1.915 E16.95301
G1 X-1.775 Y1.915 E17.19016
G1 X-2.227 Y1.248 E17.24399
G1 X-2.407 Y0.853 E17.27300
G1 X-2.516 Y0.433 E17.30201
G1 X-2.553 Y0.000 E17.33101
G1 X-2.516 Y-0.433 E17.36002
G1 X-2.407 Y-0.853 E17.38903
G1 X-2.227 Y-1.248 E17.41804
G1 X-1.775 Y-1.915 E17.47187
G1 X1.715 Y-1.915 E17.70501
G1 X3.182 Y-3.964 F9000.000
M101 ; extruder on
G1 X4.005 Y-3.141 E17.78655 F4320.000
G1 X1.404 Y-4.948 F9000.000
M101 ; extruder on
G1 X4.957 Y-1.395 E18.13841 F4320.000
G1 X5.164 Y-0.394 E18.20993
G1 X0.397 Y-5.161 E18.68201
G1 X-0.410 Y-5.174 E18.73851
G1 X5.180 Y0.416 E19.29206
G1 X5.080 Y1.110 E19.34120
G1 X2.578 Y-1.392 E19.58905
G1 X2.859 Y-0.317 E19.66688
G1 X4.919 Y1.743 E19.87089
G1 X4.690 Y2.308 E19.91360
G1 X2.821 Y0.439 E20.09872
G1 X2.632 Y1.044 E20.14312
G1 X4.406 Y2.818 E20.31876
G1 X4.077 Y3.283 E20.35864
G1 X2.352 Y1.558 E20.52940
G1 X2.031 Y2.031 E20.56944
G1 X3.686 Y3.686 E20.73328
G1 X3.283 Y4.077 E20.77261
G1 X1.443 Y2.237 E20.95483
G1 X0.649 Y2.237 E21.01044
G1 X2.814 Y4.402 E21.22484
G1 X2.308 Y4.690 E21.26560
G1 X-0.145 Y2.237 E21.50859
G1 X-0.939 Y2.237 E21.56420
G1 X1.743 Y4.919 E21.82984
G1 X1.117 Y5.087 E21.87522
G1 X-1.733 Y2.237 E22.15753
G1 X-2.578 Y1.392 F9000.000
M101 ; extruder on
G1 X-5.080 Y-1.110 E22.40538 F4320.000
G1 X-4.919 Y-1.743 E22.45110
G1 X-2.859 Y0.317 E22.65511
G1 X-2.821 Y-0.439 E22.70813
G1 X-4.690 Y-2.308 E22.89325
G1 X-4.406 Y-2.818 E22.93412
G1 X-2.632 Y-1.044 E23.10975
G1 X-2.352 Y-1.558 E23.15074
G1 X-4.077 Y-3.282 E23.32150
G1 X-3.686 Y-3.686 E23.36082
G1 X-2.031 Y-2.031 E23.52467
G1 X-1.443 Y-2.237 F9000.000
M101 ; extruder on
G1 X-3.283 Y-4.077 E23.70690 F4320.000
G1 X-2.814 Y-4.402 E23.74686
G1 X-0.649 Y-2.237 E23.96126
G1 X0.145 Y-2.237 E24.01686
G1 X-2.308 Y-4.690 E24.25986
G1 X-1.743 Y-4.919 E24.30256
G1 X0.939 Y-2.237 E24.56820
G1 X1.733 Y-2.237 E24.62381
G1 X-1.117 Y-5.087 E24.90611
G1 X-5.180 Y-0.416 F9000.000
M101 ; extruder on
G1 X0.410 Y5.174 E25.45965 F4320.000
G1 X-0.397 Y5.161 E25.51614
G1 X-5.164 Y0.395 E25.98822
G1 X-4.957 Y1.395 E26.05974
G1 X-1.395 Y4.957 E26.41254
G1 X-3.143 Y4.003 F9000.000
M101 ; extruder on
G1 X-4.005 Y3.141 E26.49789 F4320.000
M126
M104 S220 T0 ; set temperature
M73 P3
G1 Z0.500 F9000.000
(**** New Layer ****)
G1 E22.49789 F1800.00000
M103 ; extruder off
G1 X4.274 Y-4.415 F9000.000
M101 ; extruder on
G1 E26.49789 F1800.00000
G1 X4.534 Y-4.155 E26.50880 F1800.000
G1 X4.879 Y-3.744 E26.52473
G1 X5.185 Y-3.306 E26.54059
G1 X5.574 Y-2.597 E26.56461
G1 X5.779 Y-2.103 E26.58047
G1 X5.940 Y-1.592 E26.59640
G1 X6.056 Y-1.068 E26.61233
G1 X6.126 Y-0.538 E26.62819
G1 X6.144 Y0.270 E26.65221
G1 X6.097 Y0.803 E26.66807
G1 X6.004 Y1.331 E26.68400
G1 X5.866 Y1.847 E26.69987
G1 X5.573 Y2.601 E26.72388
G1 X5.326 Y3.075 E26.73975
G1 X5.038 Y3.527 E26.75567
G1 X4.712 Y3.951 E26.77154
G1 X4.153 Y4.536 E26.79555
G1 X3.744 Y4.879 E26.81142
G1 X3.306 Y5.185 E26.82728
G1 X2.612 Y5.567 E26.85079
G1 X2.103 Y5.779 E26.86717
G1 X1.593 Y5.940 E26.88304
G1 X0.874 Y6.086 E26.90483
G1 X0.267 Y6.144 E26.92292
G1 X-0.268 Y6.144 E26.93883
G1 X-0.801 Y6.097 E26.95469
G1 X-1.594 Y5.940 E26.97871
G1 X-2.103 Y5.779 E26.99457
G1 X-2.599 Y5.574 E27.01050
G1 X-3.073 Y5.327 E27.02637
G1 X-3.732 Y4.888 E27.04987
G1 X-4.155 Y4.534 E27.06625
G1 X-4.534 Y4.155 E27.08217
G1 X-4.878 Y3.745 E27.09804
G1 X-5.318 Y3.088 E27.12154
G1 X-5.574 Y2.599 E27.13792
G1 X-5.779 Y2.103 E27.15385
G1 X-5.940 Y1.592 E27.16977
G1 X-6.056 Y1.068 E27.18570
G1 X-6.126 Y0.538 E27.20157
G1 X-6.144 Y-0.270 E27.22558
G1 X-6.097 Y-0.803 E27.24145
G1 X-6.004 Y-1.331 E27.25738
G1 X-5.866 Y-1.847 E27.27324
G1 X-5.573 Y-2.601 E27.29725
G1 X-5.326 Y-3.075 E27.31312
G1 X-5.038 Y-3.527 E27.32905
G1 X-4.712 Y-3.951 E27.34491
G1 X-4.153 Y-4.536 E27.36893
G1 X-3.745 Y-4.878 E27.38473
G1 X-3.088 Y-5.318 E27.40823
G1 X-2.599 Y-5.574 E27.42461
G1 X-2.103 Y-5.779 E27.44053
G1 X-1.592 Y-5.940 E27.45646
G1 X-1.068 Y-6.056 E27.47239
G1 X-0.538 Y-6.126 E27.48826
G1 X0.253 Y-6.144 E27.51176
G1 X0.803 Y-6.097 E27.52814
M101 ; extruder on
