; generated by Slic3r 1.2.9 on 2016-12-05 at 14:37:46

; external perimeters extrusion width = 0.40mm
; perimeters extrusion width = 0.67mm
; infill extrusion width = 0.67mm
; solid infill extrusion width = 0.67mm
; top infill extrusion width = 0.67mm

M127
M104 S230 T0 ; set temperature
(**** Start.gcode for Replicator 2 ****)
M103 ;disable RPM
M73 P0 ;enable build progress
G21 ;set units to mm
G90 ;set positioning to absolute
(**** begin homing ****)
G162 X Y F2500 ;home XY axes maximum
G161 Z F1100 ;home Z axis minimum
G92 Z-5 ;set Z to -5
G1 Z0.0 ;move Z to "0"
G161 Z F100 ;home Z axis minimum
M132 X Y Z A B ;Recall stored home offsets for XYZAB axis
(**** end homing ****)
G1 X-141 Y-74 Z75 F3300.0 ;move to waiting position
G130 X20 Y20 Z20 A20 B20 ;Lower stepper Vrefs while heating
M6 T0 ;wait for toolhead, and HBP to reach temperature
M70 P5 (We Be Making Things!)
G130 X127 Y127 Z40 A127 B127 ;Set Stepper motor Vref to defaults
M108 R3.0 T0
G0 X-141 Y-74 ;Position Nozzle
G0 Z1 ;Move above plate
G1 Z0.3 ;Position Height
M108 R5.0 ;Set Extruder Speed
M101 ;Start Extruder
G4 P3000 ;Create Anchor
G1 X-137 Y-70 Z0.1 F1000.0 ;Slow wipe
G0 Z0.3 ;and lift
(**** end of Start.gcode ****)
M73 P0
G1 Z0.300 F9000.000
(**** New Layer ****)
G1 E-4.00000 F1800.00000
M103 ; extruder off
G1 X6.282 Y31.711 F9000.000
M101 ; extruder on
G1 E0.00000 F1800.00000
G1 X-4.268 Y33.800 E0.71843 F4320.000
G1 X-5.151 Y33.913 E0.77791
G1 X-5.709 Y33.934 E0.81525
G1 X-64.129 Y33.934 E4.71802
G1 X-64.571 Y33.920 E4.74754
G1 X-65.636 Y33.787 E4.81928
G1 X-66.439 Y33.588 E4.87452
G1 X-67.262 Y33.287 E4.93308
G1 X-67.742 Y33.063 E4.96846
G1 X-68.505 Y32.615 E5.02757
G1 X-69.079 Y32.198 E5.07496
G1 X-69.611 Y31.731 E5.12222
G1 X-70.049 Y31.278 E5.16434
G1 X-70.573 Y30.622 E5.22042
G1 X-70.836 Y30.236 E5.25167
G1 X-71.267 Y29.454 E5.31128
G1 X-71.635 Y28.558 E5.37597
G1 X-71.881 Y27.674 E5.43729
G1 X-71.934 Y27.405 E5.45562
G1 X-72.035 Y26.622 E5.50835
G1 X-72.060 Y26.003 E5.54972
G1 X-72.060 Y3.143 E7.07689
G1 X-71.198 Y-0.240 E7.31010
G1 X-56.387 Y-27.427 E9.37842
G1 X-54.920 Y-29.289 E9.53675
G1 X-52.921 Y-30.561 E9.69508
G1 X-50.533 Y-31.106 E9.85867
G1 X5.353 Y-33.925 E13.59692
G1 X64.129 Y-33.934 E17.52349
G1 X64.583 Y-33.919 E17.55382
M101 ; extruder on
G1 X65.676 Y-33.779 E17.62743 F4320.000
G1 X66.499 Y-33.569 E17.68416
G1 X67.336 Y-33.255 E17.74390
G1 X67.823 Y-33.021 E17.77999
G1 X68.485 Y-32.628 E17.83142
G1 X69.153 Y-32.139 E17.88670
G1 X69.609 Y-31.733 E17.92755
G1 X70.112 Y-31.208 E17.97609
G1 X70.630 Y-30.541 E18.03252
G1 X71.063 Y-29.851 E18.08693
G1 X71.299 Y-29.388 E18.12166
G1 X71.614 Y-28.616 E18.17734
G1 X71.910 Y-27.526 E18.25279
G1 X72.036 Y-26.594 E18.31565
G1 X72.060 Y-26.003 E18.35512
G1 X72.060 Y-5.683 E19.71261
G1 X71.663 Y-3.347 E19.87094
G1 X70.516 Y-1.273 E20.02927
G1 X69.525 Y-0.259 E20.12396
G1 X41.043 Y23.562 E22.60450
G1 X40.585 Y23.922 E22.64338
G1 X40.119 Y24.249 E22.68145
G1 X39.747 Y24.483 E22.71079
G1 X39.091 Y24.842 E22.76072
G1 X38.575 Y25.083 E22.79879
G1 X37.878 Y25.354 E22.84873
G1 X37.335 Y25.525 E22.88680
G1 X36.609 Y25.703 E22.93675
G1 X6.341 Y31.699 E24.99811
G1 X6.178 Y31.185 F9000.000
M101 ; extruder on
G1 X-4.369 Y33.274 E25.71635 F4320.000
G1 X-5.185 Y33.378 E25.77132
G1 X-5.709 Y33.398 E25.80636
G1 X-64.129 Y33.398 E29.70913
G1 X-64.537 Y33.386 E29.73641
G1 X-65.538 Y33.261 E29.80376
G1 X-66.279 Y33.076 E29.85481
G1 X-67.048 Y32.796 E29.90948
G1 X-67.500 Y32.585 E29.94276
G1 X-68.213 Y32.166 E29.99803
G1 X-68.746 Y31.779 E30.04207
G1 X-69.243 Y31.342 E30.08623
G1 X-69.651 Y30.920 E30.12544
G1 X-70.140 Y30.307 E30.17790
G1 X-70.384 Y29.948 E30.20684
G1 X-70.786 Y29.218 E30.26255
G1 X-71.129 Y28.382 E30.32292
G1 X-71.356 Y27.564 E30.37960
G1 X-71.407 Y27.307 E30.39712
G1 X-71.500 Y26.583 E30.44585
G1 X-71.525 Y26.003 E30.48465
G1 X-71.524 Y3.143 E32.01182
G1 X-70.728 Y0.017 E32.22736
G1 X-55.916 Y-27.171 E34.29568
G1 X-54.495 Y-28.951 E34.44785
G1 X-52.549 Y-30.134 E34.60003
G1 X-50.506 Y-30.571 E34.73955
G1 X5.380 Y-33.390 E38.47780
G1 X64.129 Y-33.398 E42.40256
G1 X64.549 Y-33.385 E42.43060
M101 ; extruder on
G1 X65.575 Y-33.253 E42.49970 F4320.000
G1 X66.335 Y-33.059 E42.55213
G1 X67.117 Y-32.766 E42.60791
G1 X67.575 Y-32.546 E42.64186
G1 X68.187 Y-32.183 E42.68940
G1 X68.814 Y-31.724 E42.74130
G1 X69.236 Y-31.348 E42.77905
G1 X69.709 Y-30.855 E42.82469
G1 X70.194 Y-30.231 E42.87751
G1 X70.594 Y-29.593 E42.92780
G1 X70.816 Y-29.157 E42.96052
G1 X71.107 Y-28.443 E43.01198
G1 X71.385 Y-27.419 E43.08288
G1 X71.502 Y-26.557 E43.14098
G1 X71.524 Y-26.003 E43.17802
G1 X71.524 Y-5.683 E44.53551
G1 X71.127 Y-3.440 E44.68768
G1 X69.181 Y-0.670 E44.91384
G1 X40.699 Y23.151 E47.39439
G1 X40.269 Y23.490 E47.43098
G1 X39.821 Y23.804 E47.46749
G1 X39.469 Y24.025 E47.49527
G1 X38.854 Y24.362 E47.54208
G1 X38.359 Y24.593 E47.57859
G1 X37.706 Y24.847 E47.62541
G1 X37.185 Y25.011 E47.66191
G1 X36.504 Y25.178 E47.70874
G1 X6.236 Y31.174 E49.77007
G1 E45.77007 F1800.00000
M103 ; extruder off
G1 X34.463 Y18.535 F9000.000
M101 ; extruder on
G1 E49.77007 F1800.00000
G1 X33.991 Y18.473 E49.80188 F1620.000
G1 X33.774 Y18.414 E49.81693
G1 X33.442 Y18.285 E49.84070
G1 X33.130 Y18.114 E49.86446
G1 X32.946 Y17.985 E49.87951
G1 X32.595 Y17.663 E49.91132
G1 X32.306 Y17.288 E49.94297
G1 X32.155 Y17.015 E49.96376
G1 X32.048 Y16.764 E49.98204
G1 X31.978 Y16.543 E49.99748
G1 X31.915 Y16.232 E50.01872
G1 X31.888 Y15.732 E50.05213
G1 X31.951 Y15.254 E50.08438
G1 X32.010 Y15.036 E50.09943
G1 X32.138 Y14.708 E50.12298
G1 X32.376 Y14.295 E50.15484
G1 X32.570 Y14.051 E50.17564
G1 X32.757 Y13.860 E50.19347
G1 X33.137 Y13.569 E50.22546
G1 X33.409 Y13.418 E50.24626
G1 X33.654 Y13.313 E50.26409
G1 X34.119 Y13.189 E50.29625
G1 X34.343 Y13.159 E50.31136
G1 X34.661 Y13.150 E50.33259
G1 X34.934 Y13.172 E50.35086
M101 ; extruder on
G1 X35.388 Y13.272 E50.38194 F1620.000
G1 X35.716 Y13.400 E50.40548
G1 X36.132 Y13.640 E50.43751
G1 X36.310 Y13.777 E50.45256
G1 X36.565 Y14.021 E50.47611
G1 X36.857 Y14.401 E50.50814
G1 X36.970 Y14.596 E50.52319
G1 X37.113 Y14.922 E50.54695
G1 X37.212 Y15.263 E50.57072
G1 X37.251 Y15.485 E50.58577
G1 X37.272 Y15.961 E50.61758
G1 X37.210 Y16.433 E50.64939
G1 X37.152 Y16.651 E50.66444
G1 X37.022 Y16.985 E50.68842
G1 X36.916 Y17.188 E50.70369
G1 X36.720 Y17.481 E50.72724
G1 X36.401 Y17.830 E50.75883
G1 X36.023 Y18.119 E50.79064
G1 X35.828 Y18.232 E50.80569
G1 X35.502 Y18.375 E50.82945
G1 X35.161 Y18.475 E50.85322
G1 X34.939 Y18.514 E50.86827
G1 X34.523 Y18.532 E50.89607
G1 X34.289 Y18.175 F9000.000
G1 X34.544 Y17.792 F9000.000
M101 ; extruder on
G1 X34.164 Y17.751 E50.92159 F1620.000
G1 X33.831 Y17.646 E50.94495
G1 X33.464 Y17.445 E50.97293
G1 X33.198 Y17.222 E50.99610
G1 X32.936 Y16.895 E51.02406
G1 X32.776 Y16.587 E51.04724
G1 X32.659 Y16.186 E51.07520
G1 X32.629 Y15.843 E51.09815
G1 X32.659 Y15.501 E51.12111
G1 X32.777 Y15.096 E51.14929
G1 X32.980 Y14.726 E51.17747
G1 X33.203 Y14.460 E51.20065
G1 X33.529 Y14.198 E51.22861
G1 X33.834 Y14.040 E51.25156
G1 X34.161 Y13.937 E51.27451
M101 ; extruder on
G1 X34.575 Y13.891 E51.30228 F1620.000
G1 X34.923 Y13.921 E51.32564
G1 X35.328 Y14.039 E51.35384
G1 X35.698 Y14.242 E51.38202
G1 X35.964 Y14.465 E51.40520
G1 X36.226 Y14.792 E51.43316
G1 X36.384 Y15.096 E51.45611
G1 X36.488 Y15.424 E51.47906
G1 X36.534 Y15.843 E51.50724
G1 X36.488 Y16.260 E51.53524
G1 X36.383 Y16.593 E51.55860
G1 X36.182 Y16.961 E51.58657
G1 X35.961 Y17.224 E51.60952
G1 X35.698 Y17.445 E51.63248
G1 X35.331 Y17.646 E51.66044
G1 X35.000 Y17.750 E51.68361
G1 X34.604 Y17.794 E51.71025
G1 X34.339 Y18.115 F9000.000
G1 X34.532 Y18.162 F9000.000
M101 ; extruder on
G1 X34.079 Y18.111 E51.74074 F1620.000
G1 X33.677 Y17.982 E51.76894
G1 X33.263 Y17.756 E51.80045
G1 X32.928 Y17.472 E51.82977
G1 X32.620 Y17.089 E51.86258
G1 X32.429 Y16.716 E51.89060
G1 X32.294 Y16.244 E51.92340
G1 X32.258 Y15.834 E51.95087
M101 ; extruder on
G1 X32.299 Y15.424 E51.97844 F1620.000
G1 X32.368 Y15.153 E51.99708
G1 X32.475 Y14.870 E52.01734
G1 X32.679 Y14.509 E52.04505
G1 X33.005 Y14.141 E52.07787
G1 X33.335 Y13.883 E52.10586
G1 X33.700 Y13.695 E52.13331
G1 X34.095 Y13.575 E52.16087
G1 X34.373 Y13.535 E52.17965
G1 X34.652 Y13.524 E52.19826
G1 X35.001 Y13.559 E52.22171
G1 X35.271 Y13.631 E52.24037
G1 X35.555 Y13.738 E52.26063
G1 X35.925 Y13.949 E52.28913
G1 X36.234 Y14.214 E52.31634
G1 X36.530 Y14.581 E52.34783
G1 X36.635 Y14.766 E52.36201
G1 X36.761 Y15.050 E52.38278
G1 X36.851 Y15.347 E52.40356
G1 X36.898 Y15.945 E52.44357
G1 X36.845 Y16.360 E52.47157
G1 X36.719 Y16.747 E52.49876
G1 X36.592 Y16.996 E52.51742
G1 X36.426 Y17.250 E52.53769
G1 X36.148 Y17.554 E52.56519
G1 X35.898 Y17.753 E52.58660
G1 X35.658 Y17.896 E52.60524
G1 X35.374 Y18.024 E52.62600
G1 X35.077 Y18.114 E52.64678
G1 X34.592 Y18.163 E52.67931
M73 P0
G1 Z0.300 F9000.000
(**** New Layer ****)
G1 E48.67931 F1800.00000
M103 ; extruder off
G1 X16.039 Y-5.983 F9000.000
M101 ; extruder on
G1 E52.67931 F1800.00000
G1 X5.150 Y-5.983 E53.40680 F1080.000
G1 X5.149 Y-25.983 E54.74291
G1 X5.171 Y-26.144 E54.75375
G1 X5.235 Y-26.292 E54.76452
G1 X5.351 Y-26.427 E54.77643
G1 X5.525 Y-26.529 E54.78991
G1 X5.728 Y-26.563 E54.80362
G1 X64.120 Y-26.562 E58.70450
G1 X64.265 Y-26.543 E58.71431
G1 X64.474 Y-26.442 E58.72982
G1 X64.536 Y-26.383 E58.73552
G1 X64.648 Y-26.205 E58.74959
G1 X64.689 Y-25.983 E58.76465
G1 X64.689 Y-5.983 E60.10074
G1 X53.799 Y-5.983 E60.82822
G1 X53.710 Y-6.544 E60.86615
G1 X53.544 Y-7.358 E60.92163
G1 X53.344 Y-8.164 E60.97711
G1 X53.108 Y-8.960 E61.03259
G1 X52.838 Y-9.745 E61.08807
G1 X52.534 Y-10.518 E61.14355
G1 X52.196 Y-11.277 E61.19904
G1 X51.824 Y-12.025 E61.25484
G1 X51.425 Y-12.747 E61.30999
G1 X50.991 Y-13.456 E61.36547
G1 X50.528 Y-14.145 E61.42095
G1 X50.035 Y-14.813 E61.47643
G1 X49.513 Y-15.459 E61.53191
G1 X48.964 Y-16.082 E61.58739
G1 X48.388 Y-16.681 E61.64287
G1 X47.787 Y-17.253 E61.69835
G1 X47.161 Y-17.799 E61.75383
G1 X46.512 Y-18.318 E61.80931
G1 X45.841 Y-18.808 E61.86479
G1 X45.150 Y-19.268 E61.92027
G1 X44.439 Y-19.697 E61.97575
G1 X43.711 Y-20.095 E62.03123
G1 X42.965 Y-20.462 E62.08671
G1 X42.205 Y-20.795 E62.14219
G1 X41.430 Y-21.095 E62.19767
G1 X40.644 Y-21.361 E62.25315
G1 X39.846 Y-21.593 E62.30863
G1 X39.039 Y-21.790 E62.36411
G1 X38.225 Y-21.951 E62.41959
G1 X37.404 Y-22.077 E62.47507
G1 X36.578 Y-22.167 E62.53054
G1 X35.749 Y-22.221 E62.58602
G1 X34.919 Y-22.239 E62.64150
G1 X34.089 Y-22.221 E62.69699
G1 X33.255 Y-22.167 E62.75279
G1 X32.435 Y-22.077 E62.80794
G1 X31.614 Y-21.951 E62.86342
G1 X30.799 Y-21.790 E62.91890
G1 X29.992 Y-21.593 E62.97438
G1 X29.195 Y-21.361 E63.02986
G1 X28.408 Y-21.095 E63.08534
G1 X27.634 Y-20.795 E63.14082
G1 X26.873 Y-20.462 E63.19630
G1 X26.128 Y-20.095 E63.25178
G1 X25.399 Y-19.697 E63.30726
G1 X24.688 Y-19.268 E63.36274
G1 X23.997 Y-18.808 E63.41822
G1 X23.326 Y-18.318 E63.47370
G1 X22.678 Y-17.799 E63.52918
G1 X22.052 Y-17.253 E63.58466
G1 X21.451 Y-16.681 E63.64014
G1 X20.875 Y-16.082 E63.69562
G1 X20.325 Y-15.459 E63.75110
G1 X19.804 Y-14.813 E63.80658
G1 X19.311 Y-14.145 E63.86206
G1 X18.847 Y-13.456 E63.91754
G1 X18.414 Y-12.747 E63.97302
G1 X18.012 Y-12.021 E64.02850
G1 X17.642 Y-11.277 E64.08398
G1 X17.305 Y-10.518 E64.13946
G1 X17.001 Y-9.745 E64.19494
G1 X16.731 Y-8.960 E64.25041
G1 X16.495 Y-8.164 E64.30589
G1 X16.294 Y-7.358 E64.36137
G1 X16.128 Y-6.544 E64.41685
G1 X16.049 Y-6.043 E64.45078
G1 X15.704 Y-6.201 F9000.000
G1 X15.577 Y-6.519 F9000.000
M101 ; extruder on
G1 X5.685 Y-6.519 E65.11156 F2160.000
G1 X5.685 Y-26.027 E66.41481
G1 X64.153 Y-26.026 E70.32079
G1 X64.153 Y-6.519 E71.62400
G1 X54.262 Y-6.519 E72.28479
G1 X54.067 Y-7.476 E72.35004
G1 X53.860 Y-8.305 E72.40708
G1 X53.618 Y-9.123 E72.46411
G1 X53.340 Y-9.931 E72.52115
G1 X53.028 Y-10.725 E72.57819
G1 X52.681 Y-11.505 E72.63523
G1 X52.298 Y-12.274 E72.69259
G1 X51.888 Y-13.017 E72.74929
G1 X51.442 Y-13.745 E72.80633
G1 X50.966 Y-14.453 E72.86337
G1 X50.459 Y-15.140 E72.92040
G1 X49.922 Y-15.805 E72.97744
G1 X49.358 Y-16.445 E73.03447
G1 X48.766 Y-17.060 E73.09151
G1 X48.148 Y-17.649 E73.14855
G1 X47.504 Y-18.211 E73.20558
G1 X46.837 Y-18.744 E73.26262
G1 X46.148 Y-19.247 E73.31966
G1 X45.437 Y-19.720 E73.37669
G1 X44.706 Y-20.162 E73.43373
G1 X43.957 Y-20.571 E73.49076
G1 X43.191 Y-20.947 E73.54780
G1 X42.409 Y-21.290 E73.60484
G1 X41.613 Y-21.599 E73.66187
G1 X40.804 Y-21.872 E73.71891
G1 X39.984 Y-22.111 E73.77595
G1 X39.155 Y-22.313 E73.83298
G1 X38.317 Y-22.479 E73.89002
G1 X37.473 Y-22.608 E73.94705
G1 X36.625 Y-22.701 E74.00409
G1 X35.773 Y-22.757 E74.06113
G1 X34.919 Y-22.775 E74.11816
G1 X34.066 Y-22.757 E74.17521
G1 X33.209 Y-22.700 E74.23256
G1 X32.365 Y-22.608 E74.28927
G1 X31.521 Y-22.479 E74.34631
G1 X30.684 Y-22.313 E74.40334
G1 X29.854 Y-22.111 E74.46038
G1 X29.034 Y-21.872 E74.51742
G1 X28.226 Y-21.599 E74.57445
G1 X27.429 Y-21.290 E74.63149
G1 X26.648 Y-20.947 E74.68852
G1 X25.881 Y-20.571 E74.74556
G1 X25.132 Y-20.162 E74.80260
G1 X24.401 Y-19.720 E74.85963
G1 X23.691 Y-19.247 E74.91667
G1 X23.001 Y-18.744 E74.97371
G1 X22.334 Y-18.211 E75.03074
G1 X21.691 Y-17.649 E75.08778
G1 X21.073 Y-17.060 E75.14481
G1 X20.481 Y-16.445 E75.20185
G1 X19.916 Y-15.805 E75.25889
G1 X19.380 Y-15.140 E75.31592
G1 X18.873 Y-14.453 E75.37296
G1 X18.396 Y-13.745 E75.42999
G1 X17.951 Y-13.017 E75.48703
G1 X17.538 Y-12.270 E75.54407
G1 X17.157 Y-11.505 E75.60110
G1 X16.811 Y-10.725 E75.65814
G1 X16.498 Y-9.931 E75.71518
G1 X16.220 Y-9.123 E75.77221
G1 X15.978 Y-8.305 E75.82925
G1 X15.772 Y-7.476 E75.88628
G1 X15.589 Y-6.578 E75.94753
G1 X6.007 Y-7.108 F9000.000
M101 ; extruder on
G1 X6.274 Y-6.841 E75.97291 F4320.000
G1 X7.036 Y-6.841 E76.02406
G1 X6.007 Y-7.869 E76.12177
G1 X6.007 Y-8.631 E76.17292
G1 X7.797 Y-6.841 E76.34297
G1 X8.559 Y-6.841 E76.39411
G1 X6.007 Y-9.392 E76.63650
G1 X6.007 Y-10.154 E76.68765
G1 X9.320 Y-6.841 E77.00237
G1 X10.082 Y-6.841 E77.05351
G1 X6.007 Y-10.916 E77.44057
G1 X6.007 Y-11.677 E77.49172
G1 X10.843 Y-6.841 E77.95111
G1 X11.605 Y-6.841 E78.00226
G1 X6.007 Y-12.439 E78.53398
G1 X6.007 Y-13.200 E78.58513
G1 X12.367 Y-6.841 E79.18919
G1 X13.128 Y-6.841 E79.24034
G1 X6.007 Y-13.962 E79.91674
G1 X6.007 Y-14.723 E79.96789
G1 X13.890 Y-6.841 E80.71662
G1 X14.651 Y-6.841 E80.76777
G1 X6.007 Y-15.485 E81.58884
G1 X6.007 Y-16.246 E81.63999
G1 X15.348 Y-6.905 E82.52724
G1 X15.480 Y-7.535 E82.57045
G1 X6.007 Y-17.008 E83.47021
G1 X6.007 Y-17.770 E83.52136
G1 X15.632 Y-8.145 E84.43555
G1 X15.800 Y-8.738 E84.47698
G1 X6.007 Y-18.531 E85.40714
G1 X6.007 Y-19.293 E85.45829
G1 X15.980 Y-9.319 E86.40560
G1 X16.175 Y-9.886 E86.44585
G1 X6.007 Y-20.054 E87.41167
G1 X6.007 Y-20.816 E87.46282
G1 X16.387 Y-10.435 E88.44879
G1 X16.609 Y-10.975 E88.48797
G1 X6.007 Y-21.577 E89.49504
G1 X6.007 Y-22.339 E89.54619
G1 X16.844 Y-11.502 E90.57552
G1 X17.094 Y-12.013 E90.61375
G1 X6.007 Y-23.101 E91.66687
G1 X6.007 Y-23.862 E91.71802
G1 X17.353 Y-12.516 E92.79572
G1 X17.624 Y-13.006 E92.83336
G1 X6.007 Y-24.624 E93.93682
G1 X6.007 Y-25.385 E93.98797
G1 X17.909 Y-13.483 E95.11849
G1 X18.201 Y-13.952 E95.15562
G1 X6.448 Y-25.705 E96.27198
G1 X7.209 Y-25.705 E96.32313
G1 X18.507 Y-14.408 E97.39624
G1 X18.824 Y-14.853 E97.43292
G1 X7.971 Y-25.705 E98.46376
G1 X8.733 Y-25.705 E98.51491
G1 X19.147 Y-15.291 E99.50412
G1 X19.487 Y-15.712 E99.54050
G1 X9.494 Y-25.705 E100.48968
G1 X10.256 Y-25.705 E100.54083
G1 X19.834 Y-16.127 E101.45060
G1 X20.191 Y-16.532 E101.48684
G1 X11.017 Y-25.705 E102.35817
G1 X11.779 Y-25.705 E102.40932
G1 X20.560 Y-16.924 E103.24342
G1 X20.936 Y-17.310 E103.27959
G1 X12.540 Y-25.705 E104.07706
G1 X13.302 Y-25.705 E104.12821
G1 X21.326 Y-17.681 E104.89039
G1 X21.725 Y-18.044 E104.92660
G1 X14.063 Y-25.705 E105.65432
G1 X14.825 Y-25.705 E105.70547
G1 X22.132 Y-18.399 E106.39947
G1 X22.553 Y-18.739 E106.43585
G1 X15.586 Y-25.705 E107.09758
G1 X16.348 Y-25.705 E107.14873
G1 X22.982 Y-19.072 E107.77882
G1 X23.422 Y-19.393 E107.81542
G1 X17.110 Y-25.705 E108.41498
G1 X17.871 Y-25.705 E108.46613
G1 X23.874 Y-19.703 E109.03630
G1 X24.333 Y-20.005 E109.07322
